!!!!SEGMENT: pl-sa--86-a-ii-26--001-002_pych-leopold--missa-brevis-in-d-gloria.krn
!!!cenid: 17xx:368
!!!COM: Pych, Leopold
!!!COM-rismID: pe30018039
!!!CDT: <1758->1774
!!!CNT:
!!!OPR: Missa brevis in D
!!!OTL: Gloria
!!!OMV: 002
!!!PDT:
!!!AGN: Sacred; Mass
!!!YEC: Copyright 2022 Narodowy Instytut Fryderyka Chopina (https://polishscores.org)
!!!YEM: License CC-BY-4.0 (https://creativecommons.org/licenses/by/4.0)
!!!SMS-siglum: PL-SA
!!!SMS-shelfmark: 86/A II 26
!!!SMS-shelfwork: 001-002 M
!!!NIFC-rismSourceID: 1001035464
!!!NIFC-rismChildID: 1001035464
!!!NIFC-islandoraID: none
!!!URL-pdf-islandora:
!!!URL-scan: https://bc.bdsandomierz.pl/dlibra/publication/1364/edition/1332/content @EN{Scan in the Sandomierz Diocese Digital Library} @PL{Skany w portalu Cyfrowa Biblioteka Diecezjalna w Sandomierzu}
!!!IIIF:
!!!ONB-nifc: UWAGA: części Mszy: Kyrie, Gloria, Credo, Sanctus, Agnus, Dona
!!!AIN: 1 bass 2 clrno 1 organ 1 soprn 2 violn
!!!key: D
!!!OMD:
!!!OMD-mod: Allegro
**kern	**fba	**dynam	**kern	**dynam	**kern	**dynam	**kern	**text	**mod-text	**kern	**text	**mod-text	**kern	**kern
*	*	*	*group3	*	*group3	*	*group2	*	*	*group2	*	*	*group1	*group1
*part7	*part7	*part7	*part6	*part6	*part5	*part5	*part4	*part4	*part4	*part3	*part3	*part3	*part2	*part1
*staff7	*staff7	*staff7	*staff6	*staff6	*staff5	*staff5	*staff4	*staff4	*staff4	*staff3	*staff3	*staff3	*staff2	*staff1
*I"Organo	*	*	*I"Violino 2do	*	*I"Violino 1mo	*	*I"Baſso	*	*	*I"Canto	*	*	*I"Clarino 2do ex D	*I"Clarino 1mo ex D
*	*	*	*mI"Violino II	*	*mI"Violino I	*	*mI"Basso	*	*	*mI"Soprano	*	*	*mI"Clarino II in D	*mI"Clarino I in D
*I'org	*	*	*I'vl 2	*	*I'vl 1	*	*I'B	*	*	*I'S	*	*	*I'clno 2	*I'clno 1
*Iorgan	*	*	*Ivioln	*	*Ivioln	*	*Ibass	*	*	*Isoprn	*	*	*Iclrno	*Iclrno
*ICklav	*	*	*ICstr	*	*ICstr	*	*ICvox	*	*	*ICvox	*	*	*ICbras	*ICbras
*IGcont	*	*	*	*	*	*	*	*	*	*	*	*	*	*
*clefF4	*	*	*clefG2	*	*clefG2	*	*clefF4	*	*	*clefC1	*	*	*clefG2	*clefG2
*	*	*	*	*	*	*	*	*	*	*mclefG2	*	*	*	*
*	*	*	*	*	*	*	*	*	*	*	*	*	*ITrd6c10	*ITrd6c10
*k[c#f#]	*	*	*k[c#f#]	*	*k[c#f#]	*	*k[c#f#]	*	*	*k[c#f#]	*	*	*k[f#c#]	*k[f#c#]
*mk[f#c#]	*	*	*mk[f#c#]	*	*mk[f#c#]	*	*mk[f#c#]	*	*	*mk[f#c#]	*	*	*	*
*D:	*	*	*D:	*	*D:	*	*D:	*	*	*D:	*	*	*D:	*D:
*M4/4	*	*	*M4/4	*	*M4/4	*	*M4/4	*	*	*M4/4	*	*	*M4/4	*M4/4
*met(c)	*	*	*met(c)	*	*met(c)	*	*met(c)	*	*	*met(c)	*	*	*met(c)	*met(c)
*mmet(c)	*	*	*mmet(c)	*	*mmet(c)	*	*mmet(c)	*	*	*mmet(c)	*	*	*mmet(c)	*mmet(c)
=1	=1	=1	=1	=1	=1	=1	=1	=1	=1	=1	=1	=1	=1	=1
!	!	!	!LO:TX:a:t=P:problem=mixed beam	!	!LO:TX:a:t=P:problem=mixed beam	!	!	!	!	!LO:TX:a:t=P:problem=znaki cc# f#	!	!	!LO:TX:a:t=P:problem=mixed beam	!LO:TX:a:t=P:problem=mixed beam
!LO:TX:a:t=Allo:mod=	!	!	!LO:TX:a:t=P:problem=znaki cc# f#	!	!LO:TX:a:t=P:problem=znaki cc# f#	!	!	!	!	!	!	!	!LO:TX:b:i:t=Gloria:mod=	!LO:TX:b:i:t=Gloria:mod=
!LO:TX:a:t=P:problem=mixed beam	!	!	!LO:TX:a:t=Allo:mod=	!	!LO:TX:a:t=Allo:mod=	!	!LO:TX:a:t=Allo:mod=	!	!	!LO:TX:a:t=Allo:mod=	!	!	!LO:TX:a:t=Allo:mod=	!LO:TX:a:t=Allo:mod=
!LO:TX:b:i:t=Gloria:mod=	!	!	!LO:TX:b:i:t=Gloria:mod=	!	!	!	!	!	!	!	!	!	!	!
8d\L	.	.	8dd\L	.	8dd\L	.	4d\	Glo-	Glo-	4.dd\	Glo-	Glo-	8d\L	8d\L
8D/J	.	.	8d/J	.	8d/J	.	.	.	.	.	.	.	8D/	8D/
16D\LL	.	.	16d/LL	.	16d/LL	.	16D\LL	.	.	.	.	.	8D/J	8D/J
!	!	!	!	!	!	!	!LO:SIC:o=16E\	!	!	!	!	!	!	!
16E\	.	.	16e/	.	16e/	.	16EJJ	.	.	.	.	.	.	.
!	!	!	!	!	!	!	!LO:SIC:o=16F#\	!	!	!	!	!	!	!
16F#\	.	.	16f#/	.	16f#/	.	16F#LL	.	-ri-	8dd\	-ri-	-ri-	8r	8r
16G\JJ	.	.	16g/JJ	.	16g/JJ	.	16G\JJ	-ri-	.	.	.	.	.	.
8A\L	.	.	8a/L	.	8a/L	.	4A\	-a	-a	4cc#\	-a	-a	8A/L	8A/L
8A\J	.	.	8a/J	.	8a/J	.	.	.	.	.	.	.	8A/	8A/
8A\L	.	.	8a/L	.	8a/L	.	8A\	in	in	8r	.	.	8A/J	8A/J
16B\L	.	.	16b/L	.	16b/L	.	16B\LL	ex-	ex-	16dd\	in	in	8r	8r
16c#\JJ	.	.	16cc#/JJ	.	16cc#/JJ	.	16c#\JJ	.	.	16ee\	ex	ex	.	.
=2	=2	=2	=2	=2	=2	=2	=2	=2	=2	=2	=2	=2	=2	=2
!LO:TX:a:t=P:problem=mixed beam	!	!	!LO:TX:a:t=P:problem=mixed beam	!	!LO:TX:a:t=P:problem=mixed beam	!	!	!	!	!	!	!	!	!
8d\L	.	.	8dd\L	.	8dd\L	.	4d\	-cel-	-cel-	4.ff#\	cel-	cel-	4F#/	4d\
8D/J	.	.	8d/J	.	8d/J	.	.	.	.	.	.	.	.	.
16D\LL	.	.	16d/LL	.	16d/LL	.	16D\LL	-sis	.	.	.	.	8r	8r
16E\	.	.	16e/	.	16e/	.	16E\JJ	.	.	.	.	.	.	.
16F#\	.	.	16f#/	.	16f#/	.	16F#\LL	.	-sis	8ff#\	-sis	-sis	8d\	8f#\
16G\JJ	.	.	16g/JJ	.	16g/JJ	.	16G\JJ	.	.	.	.	.	.	.
!LO:TX:a:t=P:problem=mixed beam	!	!	!	!	!	!	!	!	!	!	!	!	!	!
8A\L	4	.	8a/L	.	8a/L	.	8A\	De-	De-	8ee\	Deo	De-	4A/	4e\
8AA/J	3	.	8A/J	.	8A/J	.	8AA/	-o	-o	8ee\	.	-o	.	.
4r	.	.	8r	.	8r	.	4r	.	.	4r	.	.	4r	4r
.	.	.	16dd\LL	.	16ff#\LL	.	.	.	.	.	.	.	.	.
.	.	.	16ee\JJ	.	16gg\JJ	.	.	.	.	.	.	.	.	.
=3	=3	=3	=3	=3	=3	=3	=3	=3	=3	=3	=3	=3	=3	=3
4A\	#	.	8ff#\	.	8aa\	.	8r	.	.	8r	.	.	2r	2r
.	.	.	4cc#\	.	4ee\	.	4A\	in	in	4ee\	in	in	.	.
4A\	6_ 4_	.	.	.	.	.	.	.	.	.	.	.	.	.
.	.	.	8dd\	.	8ff#\	.	8d\	ex-	ex-	8ff#\	ex-	ex-	.	.
!LO:TX:a:t=P:problem=mixed beam	!	!	!LO:SIC:o=8dd\	!	!	!	!	!	!	!	!	!	!	!
8A\L	.	.	8ddL	.	8ff#\L	.	8A\	-cel-	-cel-	8ff#\	-cel-	-cel-	4r	4r
!	!	!	!LO:MO:mod=8cc#J	!	!	!	!	!	!	!	!	!	!	!
8AA/J	x n	.	4cc#\	.	8ee\J	.	8A\	-ſis	-sis	8ee\	-sis	-sis	.	.
!	!	!	!LO:MO:null:mod=8cc#L	!	!	!	!	!	!	!	!	!	!	!
4r	.	.	.	.	8ee\L	.	4r	.	.	4r	.	.	8r	8r
!	!	!	!LO:SIC:o=16dd\LL	!	!	!	!	!	!	!	!	!	!	!
.	.	.	16ddL	.	16ff#\L	.	.	.	.	.	.	.	16d\LL	16f#\LL
.	.	.	16ee\JJ	.	16gg\JJ	.	.	.	.	.	.	.	16e\JJ	16g\JJ
=4	=4	=4	=4	=4	=4	=4	=4	=4	=4	=4	=4	=4	=4	=4
4A\	#	.	8ff#\	.	8aa\	.	8r	.	.	8r	.	.	8f#\	8a\
.	.	.	4cc#\	.	4ee\	.	8A\	ex-	ex-	8ee\	ex-	ex-	4A/	4e\
4A\	6_ 4_	.	.	.	.	.	8A\	-cel-	-cel-	8ee\	-cel-	-cel-	.	.
.	.	.	8dd\	.	8ff#\	.	8d\	-sis	-sis	8ff#\	-sis	-sis	8d\	8f#\
!LO:TX:a:t=P:problem=mixed beam	!	!	!	!	!	!	!	!	!	!	!	!	!	!
8A\L	.	.	8dd\L	.	8ff#\L	.	8A\	De-	De-	8ff#\	De-	De-	8d\L	8f#\L
8AA/J	#	.	8cc#\J	.	8ee\J	.	8A\	-o	-o	8ee\	-o	-o	8A\J	8e\J
4r	.	.	4r	.	4r	.	4r	.	.	4r	.	.	4r	4r
=5	=5	=5	=5	=5	=5	=5	=5	=5	=5	=5	=5	=5	=5	=5
8B\L	-	.	8ff#\L	.	8ff#\L	.	2r	.	.	8ff#\	et	et	2r	2rg
8F#\	#3	.	8cc#\	.	8cc#\	.	.	.	.	8cc#\	in	in	.	.
!	!	!	!	!	!	!	!	!	!	!LO:LB:g=original	!	!	!	!
8F#\	.	.	8dd\	.	8dd\	.	.	.	.	8dd\	ter-	ter-	.	.
8F#\J	.	.	8b\J	.	8b\J	.	.	.	.	8b\	-ra-	-ra-	.	.
!	!	!	!LO:SIC:v:o=16qqa/LL	!	!	!	!	!	!	!	!	!	!	!
.	.	.	16qqa#/LL	.	16qqa#X/LL	.	.	.	.	.	.	.	.	.
.	.	.	16qqb/JJ	.	16qqb/JJ	.	.	.	.	.	.	.	.	.
!LO:LB:g=original	!	!	!	!	!	!	!	!	!	!	!	!	!	!
8F#\L	.	.	4cc#\	.	4cc#\	.	4F#\	pax	pax	4a#X\	-pax	-pax	8r	8r
8F#\	.	.	.	.	.	.	.	.	.	.	.	.	8F#/	8F#/
8F#\	.	.	4r	.	4r	.	4r	.	.	4r	.	.	4F#/	4F#/
8F#\J	.	.	.	.	.	.	.	.	.	.	.	.	.	.
!	!	!	!LO:LB:g=original	!	!LO:LB:g=original	!	!LO:LB:g=original	!	!	!	!	!	!LO:LB:g=original	!LO:LB:g=original
=6	=6	=6	=6	=6	=6	=6	=6	=6	=6	=6	=6	=6	=6	=6
*2\right	*	*	*	*	*	*	*	*	*	*	*	*	*	*
*tremolo	*	*	*	*	*	*	*	*	*	*	*	*	*	*
8F#\L	.	.	8ff#\L	.	8ff#\L	.	2r	.	.	8ff#\	et	et	2r	2r
8F#\	.	.	8cc#\	.	8cc#\	.	.	.	.	8cc#\	in	in	.	.
8F#\	.	.	8dd\	.	8dd\	.	.	.	.	8dd\	terra	ter-	.	.
8F#\J	.	.	8b\J	.	8b\J	.	.	.	.	8b\	.	-ra	.	.
.	.	.	16qqa#X/LL	.	16qqa#X/LL	.	.	.	.	.	.	.	.	.
.	.	.	16qqb/JJ	.	16qqb/JJ	.	.	.	.	.	.	.	.	.
8F#\L	.	.	4cc#\	.	4cc#\	.	4F#\	pax	pax	4a#X\	pax	pax	8r	8r
8F#\	.	.	.	.	.	.	.	.	.	.	.	.	8F#/	8F#/
8F#\	.	.	4r	.	4r	.	4r	.	.	4r	.	.	4F#/	4F#/
8F#\J	.	.	.	.	.	.	.	.	.	.	.	.	.	.
=7	=7	=7	=7	=7	=7	=7	=7	=7	=7	=7	=7	=7	=7	=7
*	*	*	*	*	*	*	*2\right	*	*	*2\right	*	*	*	*
8D\L	.	.	8f#/L	.	8an/L	.	2D\	bo-	bo-	2an\	bo-	bo-	2r	2r
8D\	.	.	8f#/	.	8a/	.	.	.	.	.	.	.	.	.
8D\	.	.	8f#/	.	8a/	.	.	.	.	.	.	.	.	.
8D\J	.	.	8f#/J	.	8a/J	.	.	.	.	.	.	.	.	.
*Xtremolo	*	*	*	*	*	*	*	*	*	*	*	*	*	*
4G\	.	.	4g/	.	4b\	.	4G\	-ne	-ne	8b\	-ne	-ne	4r	4r
.	.	.	.	.	.	.	.	.	.	8b\	vo-	vo-	.	.
!	!	!	!LO:SIC:v:o=4ee\	!	!	!	!	!	!	!	!	!	!	!LO:MO:mod=8r
4G\	.	.	4dd\	.	4gg\	.	8F#\	vo-	vo-	4gg\	-lun-	-lun-	8r	4g\
!	!	!	!	!	!	!	!	!	!	!	!	!	!	!LO:MO:null:mod=8g
.	.	.	.	.	.	.	8G\	-lun-	-lun-	.	.	.	8e\	.
=8	=8	=8	=8	=8	=8	=8	=8	=8	=8	=8	=8	=8	=8	=8
4A\	.	.	4dd\	.	8ff#\L	.	4A\	-ta-	-ta-	8ff#\L	-ta-	-ta-	4d\	4f#\
.	.	.	.	.	8ee\	.	.	.	.	8ee\	.	.	.	.
4AA/	.	.	4cc#\	.	8dd\	.	4AA/	.	.	8dd\	.	.	4A/	4e\
.	.	.	.	.	8cc#\J	.	.	.	.	8cc#\J	.	.	.	.
4D\	.	.	4dd\	.	4dd\	.	4D\	-tis	-tis.	4dd\	-tis	-tis.	4F#/	4d\
4F#\	.	.	4ff# 4a 4d/	.	4ff# 4a 4d/	.	4F#\	Lau-	Lau-	4dd\	Lau-	Lau-	4r	4r
=9	=9	=9	=9	=9	=9	=9	=9	=9	=9	=9	=9	=9	=9	=9
*	*	*	*	*	*^	*	*	*	*	*	*	*	*	*
!	!	!	!	!	!LO:SIC:o=4gg/	!LO:MO:mod=4ryyyy	!	!	!	!	!	!	!	!	!
4G\	.	.	4gg\	.	4gg 4b	4b\	.	4G\	-da-	-da-	4ee\	-da-	-da-	2r	2r
!	!	!	!	!	!LO:SIC:o=4ee/	!LO:MO:mod=4ryyyy	!	!	!	!	!	!	!	!	!
4A\	.	.	4ee\	.	4ee 4cc#	4cc#\	.	4A\	-mus	-mus	4cc#\	-mus	-mus	.	.
8D\L	.	.	4ff# 4a 4d/	.	4ff# 4a 4d/	4ryyyy	.	4D\	te	te	4dd\	te	te	4r	4r
16F#\L	.	.	.	.	.	.	.	.	.	.	.	.	.	.	.
16A\JJ	.	.	.	.	.	.	.	.	.	.	.	.	.	.	.
!LO:TX:a:t=P:problem=mixed beam	!	!	!	!	!	!	!	!	!	!	!	!	!	!	!
8d\L	.	.	4dd\	.	8dd\L	4ryyyy	.	8d\	be-	be-	8ff#\	be-	be-	4d\	4f#\
8D/J	.	.	.	.	8dd\J	.	.	8d\	-ne-	-ne-	8ff#\	-ne-	-ne-	.	.
*	*	*	*	*	*v	*v	*	*	*	*	*	*	*	*	*
=10	=10	=10	=10	=10	=10	=10	=10	=10	=10	=10	=10	=10	=10	=10
4G\	6	.	4ee\	.	4ee\	.	4G\	-di-	-di-	4gg\	-di-	-di-	4e\	4g\
4A\	.	.	4cc#\	.	4cc#\	.	8A\	-ci-	-ci-	8ee\	-ci-	-ci-	4A/	4e\
.	.	.	.	.	.	.	8A\	-mus	-mus	8ee\	-mus	-mus	.	.
!	!	!	!	!	!	!	!	!	!	!LO:LB:g=original	!	!	!	!
4D\	.	.	4dd\	.	4dd\	.	4D/	Te	te	4ff#\	te	te	4F#/	4d\
4r	.	.	4r	.	4r	.	4r	.	.	8dd\	a-	a-	4r	4r
.	.	.	.	.	.	.	.	.	.	8dd\	-do-	-do-	.	.
=11	=11	=11	=11	=11	=11	=11	=11	=11	=11	=11	=11	=11	=11	=11
*	*	*	*	*	*	*	*	*	*	*	*	*	*	*
!	!	!	!	!	!	!LO:DY:b:t=po	!	!	!	!	!	!	!	!
!	!	!	!	!	!	!LO:MO:mod=.	!	!	!	!	!	!	!	!
4r	.	.	8r	.	8r	p	4r	.	.	1ffn	-ra-	-ra-	1r	1r
!	!	!	!	!LO:MO:null:mod=!LO&colon;DY&colon;ed=brack	!	!	!	!	!	!	!	!	!	!
!	!	!	!	!null	!	!	!	!	!	!	!	!	!	!
!	!	!	!	!LO:MO:null:mod=p	!	!LO:MO:null:mod=p	!	!	!	!	!	!	!	!
.	.	.	8dd\L	.	8dd\L	.	.	.	.	.	.	.	.	.
8D\L	.	.	8ffn\	.	8ffn\	.	8D\	a-	a-	.	.	.	.	.
8D\J	.	.	8dd\J	.	8dd\J	.	8D\	-do-	-do-	.	.	.	.	.
*tremolo	*	*	*	*	*	*	*	*	*	*	*	*	*	*
!LO:TX:a:t=....:mod=	!	!	!	!	!	!	!LO:SIC:v:o=2d-\	!	!	!	!	!	!	!
8B-X'\L	.	.	8r	.	8r	.	2d	-ra-	-ra-	.	.	.	.	.
8B-X'\	.	.	8dd\L	.	8dd\L	.	.	.	.	.	.	.	.	.
8B-X'\	.	.	8ff\	.	8ff\	.	.	.	.	.	.	.	.	.
8B-X'\J	.	.	8dd\J	.	8dd\J	.	.	.	.	.	.	.	.	.
*Xtremolo	*	*	*	*	*	*	*	*	*	*	*	*	*	*
=12	=12	=12	=12	=12	=12	=12	=12	=12	=12	=12	=12	=12	=12	=12
!	!	!	!	!LO:MO:null:mod=!LO&colon;DY&colon;ed=brack	!	!	!	!	!	!	!	!	!	!
!	!	!	!	!null	!	!	!	!	!	!	!	!	!	!
!	!	!	!	!LO:MO:null:mod=f	!	!	!	!	!	!	!	!	!	!
4A\	.	.	8cc#\L	.	8ee\L	f	8A\	-mus	-mus	8ee\	-mus	-mus	4A/	4e\
.	.	.	8cc#\	.	8ee\	.	8A\	glo-	glo-	8ee\	glo-	glo-	.	.
!LO:SIC:v:o=4G\	!	!	!	!	!	!	!	!	!	!	!	!	!	!
4F#\	.	.	8dd\	.	8ff#\	.	8A\	-ri-	-ri-	8ff#X\	-ri-	-ri-	8d\L	8f#\L
.	.	.	8ee\J	.	8gg\J	.	8A\	-fi-	-fi-	8gg\	-fi-	-fi-	8e\J	8g\J
!	!	!	!	!	!	!	!LO:LB:g=original	!	!	!	!	!	!	!
4d\	.	.	4dd\	.	4ff#\	.	4d\	-ca-	-ca-	4ff#\	-ca-	-ca-	4d\	4f#\
4A\	.	.	4cc#\	.	4ee\	.	4A\	-mus	-mus	4ee\	-mus	-mus	4A/	4e\
=13	=13	=13	=13	=13	=13	=13	=13	=13	=13	=13	=13	=13	=13	=13
!	!	!	!LO:SIC:v:o=8cc#\L	!	!	!	!	!	!	!	!	!	!	!
4D\	.	.	8dd\L	.	8ff# 8a 8d/	.	4D/	Te	te	8dd\	te	te	4d\	4f#\
.	.	.	8a\	.	8a/L	.	.	.	.	8a\L	gra-	gra-	.	.
4r	.	.	8b\	.	8b/	.	4r	.	.	8b\	.	.	4r	4r
.	.	.	8cc#\J	.	8cc#/J	.	.	.	.	8cc#\J	.	.	.	.
!	!	!	!	!	!LO:LB:g=original	!	!	!	!	!	!	!	!	!
8r	.	.	4dd\	.	4dd\	.	8r	.	.	4dd\	.	.	4F#/	4d\
8D\L	.	.	.	.	.	.	8D\L	gra-	gra-	.	.	.	.	.
8E\	.	.	4ccn\	.	4ccn\	.	8E\J	.	.	4ccn\	-ti-	-ti-	4F#/	4d\
8F#\J	-n5	.	.	.	.	.	8F#\	-ti-	-ti-	.	.	.	.	.
!	!	!	!LO:LB:g=original	!	!	!	!	!	!	!	!	!	!	!LO:LB:g=original
=14	=14	=14	=14	=14	=14	=14	=14	=14	=14	=14	=14	=14	=14	=14
4G\	.	.	8b\L	.	8b\L	.	4G\	-as	-as	8b\	-as	-as	2rg	2rg
.	.	.	8b\	.	8b\	.	.	.	.	8b\L	gra-	gra-	.	.
4r	.	.	8cc#\	.	8cc#X\	.	4r	.	.	8cc#X\	.	.	.	.
.	.	.	8dd\J	.	8dd\J	.	.	.	.	8dd\J	.	.	.	.
!	!	!	!	!	!	!	!	!	!	!	!	!	!LO:SIC:v:o=4A/	!
8r	.	.	4ee\	.	4ee\	.	8r	.	.	4ee\	.	.	4G/	4e\
8E\L	.	.	.	.	.	.	8E\L	gra-	gra-	.	.	.	.	.
!	!	!	!	!	!	!	!	!	!	!	!	!	!LO:SIC:v:o=4A/	!
8F#\	.	.	4dd\	.	4dd\	.	8F#\J	.	.	4dd\	-ti-	-ti-	4G/	4e\
8G#X\J	-n5	.	.	.	.	.	8G#X\	-ti-	-ti-	.	.	.	.	.
!	!	!	!	!	!	!	!	!	!	!	!	!	!LO:LB:g=original	!
=15	=15	=15	=15	=15	=15	=15	=15	=15	=15	=15	=15	=15	=15	=15
4A\	.	.	8cc#\L	.	8cc#\L	.	8A\	-as	-as	8cc#\	-as	-as	4r	4r
.	.	.	8cc#\	.	8ee\	.	8A\	a-	a-	8ee\	a-	a-	.	.
4AA/	.	.	8dd\	.	8ff#\	.	8A\	-gi-	-gi-	8ff#\	-gi-	-gi-	8d\L	8f#\L
.	.	.	8ee\J	.	8gg\J	.	8A\	-mus	-mus	8gg\	-mus	-mus	8e\J	8g\J
!LO:LB:g=original	!	!	!	!	!	!	!	!	!	!LO:LB:g=original	!	!	!	!
4D\	.	.	4dd\	.	4ff#\	.	4d\	Ti-	ti-	4ff#\	Ti-	ti-	4d\	4f#\
4A\	.	.	4cc#\	.	4ee\	.	4A\	-bi	-bi	4ee\	-bi	-bi	4A/	4e\
=16	=16	=16	=16	=16	=16	=16	=16	=16	=16	=16	=16	=16	=16	=16
4d\	.	.	16d/LL	.	16d/LL	.	4d\	p(ro)-	prop-	4dd\	p(ro)-	prop-	8d\	8f#\
.	.	.	16a/	.	16a/	.	.	.	.	.	.	.	.	.
.	.	.	16ff#/	.	16ff#/	.	.	.	.	.	.	.	8r	8r
.	.	.	16a/JJ	.	16a/JJ	.	.	.	.	.	.	.	.	.
4c#\	.	.	16d/LL	.	16d/LL	.	4c#\	-pter	-ter	4dd\	-pter	-ter	8d\	8f#\
.	.	.	16a/	.	16a/	.	.	.	.	.	.	.	.	.
.	.	.	16ff#/	.	16ff#/	.	.	.	.	.	.	.	8r	8r
.	.	.	16a/JJ	.	16a/JJ	.	.	.	.	.	.	.	.	.
4B\	.	.	16d/LL	.	16d/LL	.	4B\	ma-	mag-	4dd\	mag-	mag-	8d\	8f#\
.	.	.	16a/	.	16a/	.	.	.	.	.	.	.	.	.
.	.	.	16ff#/	.	16ff#/	.	.	.	.	.	.	.	8r	8r
.	.	.	16a/JJ	.	16a/JJ	.	.	.	.	.	.	.	.	.
4A\	.	.	16d/LL	.	16d/LL	.	4A\	-gnam	-nam	4dd\	-nam	-nam	8d\	8f#\
.	.	.	16a/	.	16a/	.	.	.	.	.	.	.	.	.
.	.	.	16ff#/	.	16ff#/	.	.	.	.	.	.	.	8r	8r
.	.	.	16a/JJ	.	16a/JJ	.	.	.	.	.	.	.	.	.
=17	=17	=17	=17	=17	=17	=17	=17	=17	=17	=17	=17	=17	=17	=17
4G\	6	.	16d/LL	.	16d/LL	.	4G\	glo-	glo-	4dd\	glo-	glo-	8d\	8f#\
.	.	.	16a/	.	16a/	.	.	.	.	.	.	.	.	.
.	.	.	16ff#/	.	16ff#/	.	.	.	.	.	.	.	8r	8r
.	.	.	16a/JJ	.	16a/JJ	.	.	.	.	.	.	.	.	.
8F#\L	.	.	16d/LL	.	16d/LL	.	8F#\	-ri-	-ri-	8dd\	-ri-	-ri-	8d\	8f#\
.	.	.	16a/	.	16a/	.	.	.	.	.	.	.	.	.
8G\J	.	.	16ff#/	.	16ff#/	.	8G\	-am	-am	8dd\	-am	-am	8r	8r
.	.	.	16a/JJ	.	16a/JJ	.	.	.	.	.	.	.	.	.
!	!	!	!	!	!	!	!	!	!	!LO:SIC:o=(4ee\	!	!	!	!
4A\	6 4	.	4ee\	.	4gg\	.	4A\	Tu-	tu-	4ee	tu-	tu-	4e\	4g\
!	!	!	!	!	!	!	!	!	!	!LO:SIC:o=4cc#\)	!	!	!	!
4AA/	5 3	.	4cc#\	.	4ee\	.	4AA/	.	.	4cc#	.	.	4A/	4e\
=18	=18	=18	=18	=18	=18	=18	=18	=18	=18	=18	=18	=18	=18	=18
!	!	!	!LO:TX:a:t=P:problem=mixed beam	!	!LO:TX:a:t=P:problem=mixed beam	!	!	!	!	!	!	!	!LO:TX:a:t=P:problem=mixed beam	!LO:TX:a:t=P:problem=mixed beam
8D\L|	.	.	8dd\L	.	8dd\L	.	4D/	-am	-am	4dd\	-am	-am	8d\L	8d\L
8D\J|	.	.	8d/J	.	8d/J	.	.	.	.	.	.	.	8D/	8D/
16D\LL|	.	.	16d/LL	.	16d/LL	.	4r	.	.	4r	.	.	8D/J	8D/J
16E\|	.	.	16e/	.	16e/	.	.	.	.	.	.	.	.	.
16F#\|	.	.	16f#/	.	16f#/	.	.	.	.	.	.	.	8r	8r
16G\JJ|	.	.	16g/JJ	.	16g/JJ	.	.	.	.	.	.	.	.	.
8A\L|	.	.	8a/L	.	8a/L	.	2r	.	.	2r	.	.	8A/L	8A/L
8A\J|	.	.	8a/J	.	8a/J	.	.	.	.	.	.	.	8A/	8A/
8A\L|	.	.	8a\L	.	8a/L	.	.	.	.	.	.	.	8A/J	8A/J
16B\L|	.	.	16b\L	.	16b/L	.	.	.	.	.	.	.	8r	8r
16c#\JJ|	.	.	16cc#\JJ	.	16cc#/JJ	.	.	.	.	.	.	.	.	.
=19	=19	=19	=19	=19	=19	=19	=19	=19	=19	=19	=19	=19	=19	=19
!	!	!	!LO:TX:a:t=P:problem=mixed beam	!	!LO:TX:a:t=P:problem=mixed beam	!	!	!	!	!	!	!	!	!
8d\L|	.	.	8dd\L	.	8dd\L	.	1r	.	.	1r	.	.	4r	4r
8F#\|	.	.	8f#/	.	8f#/	.	.	.	.	.	.	.	.	.
8G\|	.	.	8g/	.	8g/	.	.	.	.	.	.	.	8r	8r
8A\J|	.	.	8a/J	.	8a/J	.	.	.	.	.	.	.	8A/	8A/
4D\|	.	.	4d/	.	4d/	.	.	.	.	.	.	.	4D/	4D/
4r	.	.	4r	.	4r	.	.	.	.	.	.	.	4r	4r
!	!	!	!LO:LB:g=original	!	!LO:LB:g=original	!	!LO:LB:g=original	!	!	!	!	!	!LO:LB:g=original	!LO:LB:g=original
=20||	=20||	=20||	=20||	=20||	=20||	=20||	=20||	=20||	=20||	=20||	=20||	=20||	=20||	=20||
!!!OMD:
!!!OMD-mod: Adagio
*k[f#]	*	*	*k[f#]	*	*k[f#]	*	*k[f#]	*	*	*k[f#]	*	*	*	*
*M2/4	*	*	*M2/4	*	*M2/4	*	*M2/4	*	*	*M2/4	*	*	*M2/4	*M2/4
!!LO:MO:ori
!LO:TX:a:t=P:problem=nadmiarowa pauza w Canto	!	!	!LO:TX:a:t=P:problem=nadmiarowa pauza w Canto	!	!LO:TX:a:t=P:problem=nadmiarowa pauza w Canto	!	!LO:TX:a:t=P:problem=nadmiarowa pauza w Canto	!	!	!	!	!	!LO:TX:a:t=P:problem=nadmiarowa pauza w Canto	!LO:TX:a:t=P:problem=nadmiarowa pauza w Canto
!	!	!	!	!	!LO:TX:a:t=P:problem=krzyżyk f#	!	!LO:TX:a:i:t=Domine \nTacet	!	!	!LO:TX:a:t=Solo	!	!	!LO:TX:a:i:t=Laudamus Quitollis Tacett	!LO:TX:a:i:t=Laudamus Quitollis \nTacett
8ryy	.	.	8ryy	.	8ryy	.	8ryy	.	.	8r	.	.	8ryy	8ryy
=	=	=	=	=	=	=	=	=	=	=	=	=	=	=
!!LO:MO:end
!	!	!	!LO:TX:a:t=P:problem=krzyżyk f#	!	!	!	!	!	!	!	!	!	!	!
!LO:TX:b:i:t=Domine:mod=	!	!	!LO:TX:b:i:t=Domine:mod=	!	!LO:TX:b:t=Domine:mod=	!	!	!	!	!LO:TX:a:t=12:mod=	!	!	!	!
!LO:MO:mod=!LO&colon;TX&colon;a&colon;i&colon;t=Solo	!	!	!	!	!	!	!	!	!	!	!	!	!	!
!LO:TX:a:t=Solo	!	!	!LO:TX:a:t=Solo:mod=	!	!LO:TX:a:i:t=Ada:mod=	!	!	!	!	!LO:N:vis=00	!	!	!	!
8G\L	.	.	4g/	.	16g/LL	.	2ryy	.	.	0r	.	.	2ryy	2ryy
.	.	.	.	.	16d/	.	.	.	.	.	.	.	.	.
8G\	.	.	.	.	16g/	.	.	.	.	.	.	.	.	.
.	.	.	.	.	16a/JJ	.	.	.	.	.	.	.	.	.
8G\	.	.	16g/LL	.	16b/LL	.	.	.	.	.	.	.	.	.
.	.	.	16d/	.	16g/	.	.	.	.	.	.	.	.	.
8G\J	.	.	16g/	.	16b/	.	.	.	.	.	.	.	.	.
.	.	.	16a/JJ	.	16cc/JJ	.	.	.	.	.	.	.	.	.
=21	=21	=21	=21	=21	=21	=21	=21	=21	=21	=21	=21	=21	=21	=21
8G\L	.	.	8.b\L	.	8.dd\L	.	2ryy	.	.	.	.	.	2ryy	2ryy
8G\	.	.	.	.	.	.	.	.	.	.	.	.	.	.
.	.	.	16cc\Jk	.	16ee\Jk	.	.	.	.	.	.	.	.	.
8D\	7	.	8.a/L	.	8.cc\L	.	.	.	.	.	.	.	.	.
8D\J	.	.	.	.	.	.	.	.	.	.	.	.	.	.
.	.	.	16b/Jk	.	16dd\Jk	.	.	.	.	.	.	.	.	.
=22	=22	=22	=22	=22	=22	=22	=22	=22	=22	=22	=22	=22	=22	=22
!LO:TX:a:t=P:problem=mixed beam	!	!	!	!	!	!	!	!	!	!	!	!	!	!
8GG/L	.	.	8g/L	.	16b/LL	.	2ryy	.	.	.	.	.	2ryy	2ryy
.	.	.	.	.	16g/	.	.	.	.	.	.	.	.	.
8G\	.	.	16b/L	.	16b/	.	.	.	.	.	.	.	.	.
.	.	.	16dd/JJ	.	16dd/JJ	.	.	.	.	.	.	.	.	.
8G\	.	.	16gg\LL	.	16gg\LL	.	.	.	.	.	.	.	.	.
.	.	.	16dd\	.	16dd\	.	.	.	.	.	.	.	.	.
8G\J	.	.	16gg\	.	16gg\	.	.	.	.	.	.	.	.	.
.	.	.	16bb\JJ	.	16bb\JJ	.	.	.	.	.	.	.	.	.
=23	=23	=23	=23	=23	=23	=23	=23	=23	=23	=23	=23	=23	=23	=23
8G\L	.	.	4bb\	.	4ddd\	.	2ryy	.	.	.	.	.	2ryy	2ryy
8B\	.	.	.	.	.	.	.	.	.	.	.	.	.	.
8A\	.	.	4aa\	.	4ccc\	.	.	.	.	.	.	.	.	.
8D\J	7	.	.	.	.	.	.	.	.	.	.	.	.	.
=24	=24	=24	=24	=24	=24	=24	=24	=24	=24	=24	=24	=24	=24	=24
!LO:TX:a:t=P:problem=mixed beam	!	!	!	!	!	!	!	!	!	!LO:N:vis=00	!	!	!	!
8G\L	.	.	16gg\LL	.	16bb\LL	.	2ryy	.	.	0r	.	.	2ryy	2ryy
.	.	.	16b\	.	16gg\	.	.	.	.	.	.	.	.	.
8GG/J	.	.	16b\	.	16gg\	.	.	.	.	.	.	.	.	.
.	.	.	16b\JJ	.	16gg\JJ	.	.	.	.	.	.	.	.	.
*	*	*	*tremolo	*	*tremolo	*	*	*	*	*	*	*	*	*
16r	.	.	16b\LL	.	16gg\LL	.	.	.	.	.	.	.	.	.
!LO:TX:a:t=P:problem=mixed beam	!	!	!	!	!	!	!	!	!	!	!	!	!	!
16G\LL	.	.	16b\	.	16gg\	.	.	.	.	.	.	.	.	.
16GG/	.	.	16b\	.	16gg\	.	.	.	.	.	.	.	.	.
16G\JJ	.	.	16b\JJ	.	16gg\JJ	.	.	.	.	.	.	.	.	.
*	*	*	*Xtremolo	*	*Xtremolo	*	*	*	*	*	*	*	*	*
!LO:LB:g=original	!	!	!	!	!	!	!	!	!	!	!	!	!	!
=25	=25	=25	=25	=25	=25	=25	=25	=25	=25	=25	=25	=25	=25	=25
4G\	.	.	16r	.	16r	.	2ryy	.	.	.	.	.	2ryy	2ryy
.	.	.	16b\LL	.	16gg\LL	.	.	.	.	.	.	.	.	.
.	.	.	16a\	.	16ff#\	.	.	.	.	.	.	.	.	.
.	.	.	16b\JJ	.	16gg\JJ	.	.	.	.	.	.	.	.	.
!	!	!	!	!	!LO:TUP:problem=klamra łukowa	!	!	!	!	!	!	!	!	!
8F#\L	5	.	16cc\LL	.	24aa\LL	.	.	.	.	.	.	.	.	.
.	.	.	.	.	24ff#\	.	.	.	.	.	.	.	.	.
.	.	.	16b\	.	.	.	.	.	.	.	.	.	.	.
.	.	.	.	.	24dd\JJ	.	.	.	.	.	.	.	.	.
8G\J	.	.	16a\	.	16cc\LL	.	.	.	.	.	.	.	.	.
.	.	.	16g\JJ	.	16b\JJ	.	.	.	.	.	.	.	.	.
=26	=26	=26	=26	=26	=26	=26	=26	=26	=26	=26	=26	=26	=26	=26
!LO:TX:a:t=P:problem=mixed beam	!	!	!	!	!	!	!	!	!	!	!	!	!	!
8d\L	6 4	.	8g/L	.	8b/L	.	2ryy	.	.	.	.	.	2ryy	2ryy
8D/	x 3	.	8f#/J	.	8a/J	.	.	.	.	.	.	.	.	.
8D/	.	.	8r	.	8r	.	.	.	.	.	.	.	.	.
8D/J	.	.	8d/	.	8d/	.	.	.	.	.	.	.	.	.
=27	=27	=27	=27	=27	=27	=27	=27	=27	=27	=27	=27	=27	=27	=27
4D\	.	.	4a/	.	(16cc/LL	.	2ryy	.	.	.	.	.	2ryy	2ryy
.	.	.	.	.	16a/	.	.	.	.	.	.	.	.	.
.	.	.	.	.	16f#/	.	.	.	.	.	.	.	.	.
.	.	.	.	.	16d/JJ)	.	.	.	.	.	.	.	.	.
8A\L	.	.	(16cc/LL	.	4cc\	.	.	.	.	.	.	.	.	.
.	.	.	16a/	.	.	.	.	.	.	.	.	.	.	.
8D\J	7	.	16f#/	.	.	.	.	.	.	.	.	.	.	.
.	.	.	16d/JJ)	.	.	.	.	.	.	.	.	.	.	.
=28	=28	=28	=28	=28	=28	=28	=28	=28	=28	=28	=28	=28	=28	=28
!	!	!	!	!	!	!	!	!	!	!LO:N:vis=00	!	!	!	!
4G\	.	.	4b/	.	(16dd/LL	.	2ryy	.	.	0r	.	.	2ryy	2ryy
.	.	.	.	.	16b/	.	.	.	.	.	.	.	.	.
.	.	.	.	.	16g/	.	.	.	.	.	.	.	.	.
.	.	.	.	.	16d/JJ)	.	.	.	.	.	.	.	.	.
8B\L	.	.	(16dd/LL	.	4dd\	.	.	.	.	.	.	.	.	.
.	.	.	16b/	.	.	.	.	.	.	.	.	.	.	.
!	!	!	!LO:SIC:v:o=16f#/	!	!	!	!	!	!	!	!	!	!	!
8G\J	.	.	16g/	.	.	.	.	.	.	.	.	.	.	.
.	.	.	16d/JJ)	.	.	.	.	.	.	.	.	.	.	.
!	!	!	!	!	!LO:LB:g=original	!	!	!	!	!	!	!	!	!
=29	=29	=29	=29	=29	=29	=29	=29	=29	=29	=29	=29	=29	=29	=29
4D\	.	.	4a/	.	(16cc/LL	.	2ryy	.	.	.	.	.	2ryy	2ryy
.	.	.	.	.	16a/	.	.	.	.	.	.	.	.	.
.	.	.	.	.	16f#/	.	.	.	.	.	.	.	.	.
.	.	.	.	.	16d/JJ)	.	.	.	.	.	.	.	.	.
!	!	!	!LO:LB:g=original	!	!	!	!	!	!	!	!	!	!	!
8A\L	.	.	(16cc/LL	.	4cc\	.	.	.	.	.	.	.	.	.
.	.	.	16a/	.	.	.	.	.	.	.	.	.	.	.
8D\J	7	.	16f#/	.	.	.	.	.	.	.	.	.	.	.
.	.	.	16d/JJ)	.	.	.	.	.	.	.	.	.	.	.
=30	=30	=30	=30	=30	=30	=30	=30	=30	=30	=30	=30	=30	=30	=30
8G\L	.	.	16g/LL	.	16b\LL	.	2ryy	.	.	.	.	.	2ryy	2ryy
.	.	.	16g/	.	16b\	.	.	.	.	.	.	.	.	.
8G\	.	.	16g/	.	16b\	.	.	.	.	.	.	.	.	.
.	.	.	16g/JJ	.	16b\JJ	.	.	.	.	.	.	.	.	.
*	*	*	*tremolo	*	*tremolo	*	*	*	*	*	*	*	*	*
8E\	.	.	16g/LL	.	16b\LL	.	.	.	.	.	.	.	.	.
.	.	.	16g/	.	16b\	.	.	.	.	.	.	.	.	.
8C#X\J	.	.	16g/	.	16b\	.	.	.	.	.	.	.	.	.
.	.	.	16g/JJ	.	16b\JJ	.	.	.	.	.	.	.	.	.
*	*	*	*Xtremolo	*	*Xtremolo	*	*	*	*	*	*	*	*	*
=31	=31	=31	=31	=31	=31	=31	=31	=31	=31	=31	=31	=31	=31	=31
!	!	!	!LO:MO:null:mod=*null	!	!	!	!	!	!	!	!	!	!	!
*	*	*	*Xtuplet	*	*	*	*	*	*	*	*	*	*	*
!	!	!	!	!	!LO:TUP:problem=klamra łukowa	!	!	!	!	!	!	!	!	!
4D\	7	.	24b/LL	.	24b\LL	.	2ryy	.	.	.	.	.	2ryy	2ryy
.	.	.	24a/	.	24a\	.	.	.	.	.	.	.	.	.
.	.	.	24b/JJ	.	24b\JJ	.	.	.	.	.	.	.	.	.
!	!	!	!	!	!LO:TUP:problem=klamra łukowa	!	!	!	!	!	!	!	!	!
.	.	.	24cc/LL	.	24cc\LL	.	.	.	.	.	.	.	.	.
.	.	.	24b/	.	24b\	.	.	.	.	.	.	.	.	.
.	.	.	24a/JJ	.	24a\JJ	.	.	.	.	.	.	.	.	.
8G\L	.	.	8g/L	.	8b/L	.	.	.	.	.	.	.	.	.
8D\J	.	.	8f#/J	.	8a/J	.	.	.	.	.	.	.	.	.
=32	=32	=32	=32	=32	=32	=32	=32	=32	=32	=32	=32	=32	=32	=32
8G\L	.	.	4g/	.	4g/	.	2ryy	.	.	4r	.	.	2ryy	2ryy
8D\J	.	.	.	.	.	.	.	.	.	.	.	.	.	.
4GG/	.	.	8r	.	8r	.	.	.	.	8r	.	.	.	.
!	!	!	!	!	!	!	!	!	!	!LO:MO:null:mod=!LO&colon;TX&colon;a&colon;i&colon;t=Solo	!	!	!	!
!	!	!	!	!	!	!LO:DY:b:t=pu	!	!	!	!null	!	!	!	!
.	.	.	8g/	p	8g/	p	.	.	.	8b\	Do-	Do-	.	.
=33	=33	=33	=33	=33	=33	=33	=33	=33	=33	=33	=33	=33	=33	=33
8G\L	.	p	8.b/L	.	8.dd\L	.	2ryy	.	.	8.dd\	-mi-	-mi-	2ryy	2ryy
8G\	.	.	.	.	.	.	.	.	.	.	.	.	.	.
!	!	!	!LO:SIC:o=16cc/K	!	!	!	!	!	!	!	!	!	!	!
.	.	.	16ccJk	.	16ee\Jk	.	.	.	.	16ee\	-ne	.	.	.
!	!	!	!LO:SIC:o=8.a/	!	!	!	!	!	!	!LO:SIC:o=(8cc\L	!	!	!	!
8D\	7	.	8.aL	.	8.cc\L	.	.	.	.	8ccL	.	-ne	.	.
!	!	!	!	!	!	!	!	!	!	!LO:SIC:o=8dd\J)	!	!	!	!
8D\J	.	.	.	.	.	.	.	.	.	8ddJ	.	.	.	.
.	.	.	16b/Jk	.	16dd\Jk	.	.	.	.	.	.	.	.	.
!	!	!	!	!	!	!	!	!	!	!LO:LB:g=original	!	!	!	!
=34	=34	=34	=34	=34	=34	=34	=34	=34	=34	=34	=34	=34	=34	=34
!LO:TX:a:t=P:problem=mixed beam	!	!	!	!	!	!	!	!	!	!	!	!	!	!
8GG/L	.	.	8g/L	.	8b/L	.	2ryy	.	.	16b\LL	De-	De-	2ryy	2ryy
.	.	.	.	.	.	.	.	.	.	16f#\JJ	.	.	.	.
8G\	.	.	8g/J	.	8b/J	.	.	.	.	8g\	-us	-us	.	.
8G\	.	.	16g/LL	.	16b/LL	.	.	.	.	4r	.	.	.	.
.	.	.	16g/	.	16g/	.	.	.	.	.	.	.	.	.
8G\J	.	.	16a/	.	16cc/	.	.	.	.	.	.	.	.	.
.	.	.	16b/JJ	.	16dd/JJ	.	.	.	.	.	.	.	.	.
=35	=35	=35	=35	=35	=35	=35	=35	=35	=35	=35	=35	=35	=35	=35
!LO:TX:a:t=P:problem=mixed beam	!	!	!	!	!	!	!	!	!	!	!	!	!	!
8c\L	.	.	8cc\L	.	8ee\L	.	2ryy	.	.	8.ee\	Rex	Rex	2ryy	2ryy
8c\	.	.	8cc\	.	8ee\	.	.	.	.	.	.	.	.	.
.	.	.	.	.	.	.	.	.	.	16ee\	ce-	cae-	.	.
8d\	4	.	8b\	.	8dd\	.	.	.	.	8dd\L	-les-	-les-	.	.
8D/J	3	.	8a\J	.	8cc\J	.	.	.	.	8cc\J	.	.	.	.
=36	=36	=36	=36	=36	=36	=36	=36	=36	=36	=36	=36	=36	=36	=36
8G\L	.	.	8g/L	.	16b/LL	.	2ryy	.	.	4b\	-tis	-tis	2ryy	2ryy
.	.	.	.	.	16g/	.	.	.	.	.	.	.	.	.
8G\	.	.	16g/L	.	16b/	.	.	.	.	.	.	.	.	.
.	.	.	16a/JJ	.	16cc/JJ	.	.	.	.	.	.	.	.	.
8G\	.	.	4b/	.	4dd\	.	.	.	.	16b\LL	De-	De-	.	.
.	.	.	.	.	.	.	.	.	.	16g\JJ	.	.	.	.
8G\J	.	.	.	.	.	.	.	.	.	16b\LL	-us	-us	.	.
.	.	.	.	.	.	.	.	.	.	16cc\JJ	.	.	.	.
=37	=37	=37	=37	=37	=37	=37	=37	=37	=37	=37	=37	=37	=37	=37
8G\L	.	.	4b/	.	4dd\	.	2ryy	.	.	4dd\	Pa-	Pa-	2ryy	2ryy
8G\	.	.	.	.	.	.	.	.	.	.	.	.	.	.
8F#\	5	.	8a/L	.	8cc\L	.	.	.	.	8cc\	-ter	-ter	.	.
8G\J	.	.	8g/J	.	8b\J	.	.	.	.	8b\	om-	om-	.	.
=38	=38	=38	=38	=38	=38	=38	=38	=38	=38	=38	=38	=38	=38	=38
!LO:TX:a:t=P:problem=mixed beam	!	!	!	!LO:MO:mod=.	!	!	!	!	!	!	!	!	!	!
8D\L	6 4	.	8g/L	f	8b\L	.	2ryy	.	.	16b\	-ni-	-ni-	2ryy	2ryy
.	x 3	.	.	.	.	.	.	.	.	16g\	-po-	-po-	.	.
8DD/J	.	.	8f#/J	.	8a\J	.	.	.	.	8a\	-tens	-tens	.	.
!	!	!	!	!	!	!LO:MO:null:mod=!LO&colon;DY&colon;ed=brack	!	!	!	!	!	!	!	!
!	!	!	!	!	!	!null	!	!	!	!	!	!	!	!
!	!	!	!	!LO:MO:null:mod=f	!	!LO:MO:null:mod=f	!	!	!	!	!	!	!	!
4r	.	.	16f#/LL	.	16ff#\LL	.	.	.	.	4r	.	.	.	.
.	.	.	16d/	.	16dd\	.	.	.	.	.	.	.	.	.
.	.	.	16e/	.	16ee\	.	.	.	.	.	.	.	.	.
!	!	!	!LO:SIC:v:o=16c/JJ	!	!	!	!	!	!	!	!	!	!	!
.	.	.	16c#/JJ	.	16cc#X\JJ	.	.	.	.	.	.	.	.	.
!	!	!	!LO:LB:g=original	!	!LO:LB:g=original	!	!	!	!	!	!	!	!	!
=39	=39	=39	=39	=39	=39	=39	=39	=39	=39	=39	=39	=39	=39	=39
*tremolo	*	*	*	*	*	*	*	*	*	*	*	*	*	*
!	!	!	!	!	!	!LO:MO:null:mod=!LO&colon;DY&colon;ed=brack	!	!	!	!	!	!	!	!
!	!	!	!	!	!	!null	!	!	!	!	!	!	!	!
!LO:TX:a:t=....:mod=	!	!	!	!LO:DY:rj:t=p	!	!LO:MO:null:mod=p	!	!	!	!	!	!	!	!
16D'\LL	.	.	16f#/LL	p	16dd\LL	.	2ryy	.	.	4a\	Do-	Do-	2ryy	2ryy
!	!	!	!LO:SIC:o=16f#/	!	!	!	!	!	!	!	!	!	!	!
16D'\	.	.	16f#'/	.	16a'\	.	.	.	.	.	.	.	.	.
!	!	!	!LO:SIC:o=16f#/	!	!	!	!	!	!	!	!	!	!	!
16D'\	.	.	16f#'/	.	16a'\	.	.	.	.	.	.	.	.	.
!	!	!	!LO:SIC:o=16f#/JJ	!	!	!	!	!	!	!	!	!	!	!
16D'\	.	.	16f#'/JJ	.	16a'\JJ	.	.	.	.	.	.	.	.	.
*	*	*	*tremolo	*	*tremolo	*	*	*	*	*	*	*	*	*
!	!	!	!LO:SIC:o=16f#/LL	!	!LO:TX:b:t=...:mod=	!	!	!	!	!	!	!	!	!
16D'\	.	.	16f#'/LL	.	16a'/LL	.	.	.	.	8dd\	-mi-	-mi-	.	.
!	!	!	!LO:SIC:o=16f#/	!	!	!	!	!	!	!	!	!	!	!
16D'\	.	.	16f#'/	.	16a'/	.	.	.	.	.	.	.	.	.
!	!	!	!LO:SIC:o=16f#/	!	!	!	!	!	!	!	!	!	!	!
16D'\	.	.	16f#'/	.	16a'/	.	.	.	.	8cc\	-ne	-ne	.	.
!	!	!	!LO:SIC:o=16f#/JJ	!	!	!	!	!	!	!	!	!	!	!
16D'\JJ	.	.	16f#'/JJ	.	16a'/JJ	.	.	.	.	.	.	.	.	.
!LO:MO:null:mod=*null	!	!	!	!	!LO:MO:null:mod=*null	!	!	!	!	!	!	!	!	!
*Xtremolo	*	*	*	*	*Xtremolo	*	*	*	*	*	*	*	*	*
!LO:LB:g=original	!	!	!	!	!	!	!	!	!	!	!	!	!	!
=40	=40	=40	=40	=40	=40	=40	=40	=40	=40	=40	=40	=40	=40	=40
!	!	!	!LO:SIC:o=16g/LL	!	!	!	!	!	!	!	!	!	!	!
16G'\LL	.	.	16g'/LL	.	16b'/LL	.	2ryy	.	.	16b\LL	Fi-	Fi-	2ryy	2ryy
!	!	!	!LO:SIC:o=16g/	!	!	!	!	!	!	!	!	!	!	!
16G'\	.	.	16g'/	.	16b'/	.	.	.	.	16a\JJ	.	.	.	.
!	!	!	!LO:SIC:o=16g/	!	!	!	!	!	!	!	!	!	!	!
16G'\	.	.	16g'/	.	16b'/	.	.	.	.	8b\	-li	-li	.	.
!	!	!	!LO:SIC:o=16g/	!	!	!	!	!	!	!	!	!	!	!
16G'\JJ	.	.	16g'/	.	16b'/JJ	.	.	.	.	.	.	.	.	.
!LO:MO:null:mod=*Xtremolo	!	!	!	!	!	!	!	!	!	!	!	!	!	!
*null	*	*	*	*	*tremolo	*	*	*	*	*	*	*	*	*
!	!	!	!LO:SIC:o=16g/	!	!LO:SIC:o=16b/LL	!	!	!	!	!	!	!	!	!
16G'\LL	.	.	16g'/	.	16b'/	.	.	.	.	4r	.	.	.	.
!	!	!	!LO:SIC:o=16g/	!	!LO:SIC:o=16b/	!	!	!	!	!	!	!	!	!
16G'\	.	.	16g'/	.	16b'/	.	.	.	.	.	.	.	.	.
!	!	!	!LO:SIC:o=16g/	!	!LO:SIC:o=16b/	!	!	!	!	!	!	!	!	!
16F#'\	.	.	16g'/	.	16b'/	.	.	.	.	.	.	.	.	.
!	!	!	!LO:SIC:o=16g/JJ	!	!LO:SIC:o=16b/JJ	!	!	!	!	!	!	!	!	!
16F#'\JJ	.	.	16g'/JJ	.	16b'/JJ	.	.	.	.	.	.	.	.	.
=41	=41	=41	=41	=41	=41	=41	=41	=41	=41	=41	=41	=41	=41	=41
*tremolo	*	*	*	*	*	*	*	*	*	*	*	*	*	*
!LO:TX:a:t=...:mod=	!	!	!	!	!LO:TX:b:t=....:mod=	!	!	!	!	!	!	!	!	!
!	!	!	!LO:SIC:o=16g#/LL	!	!	!	!	!	!	!	!	!	!	!
16E'\LL	.	.	16g#'/LL	.	16b'/LL	.	2ryy	.	.	4b\	u-	u-	2ryy	2ryy
!	!	!	!LO:SIC:o=16g#/	!	!	!	!	!	!	!	!	!	!	!
16E'\	.	.	16g#'/	.	16b'/	.	.	.	.	.	.	.	.	.
!	!	!	!LO:SIC:o=16g#/	!	!	!	!	!	!	!	!	!	!	!
16E'\	.	.	16g#'/	.	16b'/	.	.	.	.	.	.	.	.	.
!	!	!	!LO:SIC:o=16g#/	!	!	!	!	!	!	!	!	!	!	!
16E'\	.	.	16g#'/	.	16b'/JJ	.	.	.	.	.	.	.	.	.
*	*	*	*	*	*Xtremolo	*	*	*	*	*	*	*	*	*
!	!	!	!LO:SIC:o=16g#/	!	!	!	!	!	!	!	!	!	!	!
16E'\	.	.	16g#'/	.	16ee'\LL	.	.	.	.	8ee\	.	.	.	.
!	!	!	!LO:SIC:o=16g#/	!	!	!	!	!	!	!	!	!	!	!
16E'\	.	.	16g#'/	.	16ee'\	.	.	.	.	.	.	.	.	.
!	!	!	!LO:SIC:o=16g#/	!	!	!	!	!	!	!	!	!	!	!
16E'\	.	.	16g#'/	.	16dd'\	.	.	.	.	8dd\	-ni	-ni	.	.
!	!	!	!LO:SIC:o=16g#/JJ	!	!	!	!	!	!	!	!	!	!	!
16E'\JJ	.	.	16g#'/JJ	.	16dd'\JJ	.	.	.	.	.	.	.	.	.
*Xtremolo	*	*	*Xtremolo	*	*	*	*	*	*	*	*	*	*	*
!	!	!	!	!	!	!	!	!	!	!LO:LB:g=original	!	!	!	!
=42	=42	=42	=42	=42	=42	=42	=42	=42	=42	=42	=42	=42	=42	=42
!LO:TX:a:t=P:problem=mixed beam	!	!	!LO:MO:mod=16aLL	!	!LO:SIC:v:o=16cc#X\LL	!	!	!	!	!LO:N:vis=16.	!	!	!	!
8A\L	.	.	16.a/LL	.	16cc\LL	.	2ryy	.	.	16cc\	ge-	ge-	2ryy	2ryy
!	!	!	!LO:MO:null:mod=16aJJ	!	!	!	!	!	!	!	!	!	!	!
.	.	.	.	.	16a\	.	.	.	.	16dd\	-ni-	-ni-	.	.
!	!	!	!LO:MO:mod=.	!	!	!	!	!	!	!	!	!	!	!
.	.	.	32a/K	.	.	.	.	.	.	.	.	.	.	.
!	!	!	!LO:MO:mod=16cc	!	!LO:SIC:v:o=16cc#\	!	!	!	!	!	!	!	!	!
8AA/J	.	.	16.cc/	.	16cc\	.	.	.	.	8ee\	-te	-te	.	.
!	!	!	!LO:MO:null:mod=16eeJJ	!	!	!	!	!	!	!	!	!	!	!
.	.	.	.	.	16ee\JJ	.	.	.	.	.	.	.	.	.
!	!	!	!LO:MO:mod=.	!	!	!	!	!	!	!	!	!	!	!
.	.	.	32ee/JJk	.	.	.	.	.	.	.	.	.	.	.
16r	.	.	16aa\LL	.	16aa\LL	.	.	.	.	8r	.	.	.	.
16A\LL	#	.	16cc\	.	16ee\	.	.	.	.	.	.	.	.	.
16B\	.	.	16dd\	.	16ff#\	.	.	.	.	8gg\	Je-	Je-	.	.
16c#X\JJ	.	.	16ee\JJ	.	16gg\JJ	.	.	.	.	.	.	.	.	.
=43	=43	=43	=43	=43	=43	=43	=43	=43	=43	=43	=43	=43	=43	=43
!LO:TX:a:t=P:problem=mixed beam	!	!	!	!	!	!	!	!	!	!	!	!	!	!
8d\L	.	.	4dd\	.	4ff#\	.	2ryy	.	.	8ff#\	.	.	2ryy	2ryy
8G\	6	.	.	.	.	.	.	.	.	16ee\LL	-su	-su	.	.
.	.	.	.	.	.	.	.	.	.	16dd\JJ	.	.	.	.
8A\	6 4	.	4r	.	4r	.	.	.	.	4ee\	Chris-	Chris-	.	.
8AA/J	x 3	.	.	.	.	.	.	.	.	.	.	.	.	.
=44	=44	=44	=44	=44	=44	=44	=44	=44	=44	=44	=44	=44	=44	=44
!	!	!LO:DY:rj	!LO:TX:a:t=P:problem=mixed beam	!LO:DY:rj	!LO:TX:a:t=P:problem=mixed beam	!LO:DY:b:rj	!	!	!	!	!	!	!	!
8D\L	.	f	16dd\LL	f	16dd\LL	f	2ryy	.	.	4dd\	-te	-te	2ryy	2ryy
.	.	.	16d/	.	16d/	.	.	.	.	.	.	.	.	.
8D\	.	.	16f#/	.	16f#/	.	.	.	.	.	.	.	.	.
.	.	.	16a/JJ	.	16a/JJ	.	.	.	.	.	.	.	.	.
8D\	.	.	16dd\LL	.	16dd\LL	.	.	.	.	4r	.	.	.	.
.	.	.	16a\	.	16a\	.	.	.	.	.	.	.	.	.
8D\J	.	.	16dd\	.	16ff#\	.	.	.	.	.	.	.	.	.
.	.	.	16ee\JJ	.	16gg\JJ	.	.	.	.	.	.	.	.	.
=45	=45	=45	=45	=45	=45	=45	=45	=45	=45	=45	=45	=45	=45	=45
!	!	!	!	!	!	!	!	!	!	!LO:TX:a:t=5:mod=	!	!	!	!
!	!	!	!	!	!	!	!	!	!	!LO:N:vis=00	!	!	!	!
8D\L	.	.	8.ff#\L	.	8.aa\L	.	2ryy	.	.	0r	.	.	2ryy	2ryy
8D\	.	.	.	.	.	.	.	.	.	.	.	.	.	.
!	!	!	!LO:SIC:o=16gg\	!	!	!	!	!	!	!	!	!	!	!
.	.	.	16ggJk	.	16bb\Jk	.	.	.	.	.	.	.	.	.
!	!	!	!LO:SIC:o=8.ee\	!	!	!	!	!	!	!	!	!	!	!
8A\	.	.	8.eeL	.	8.gg\L	.	.	.	.	.	.	.	.	.
!LO:SIC:v:o=8c\J	!	!	!	!	!	!	!	!	!	!	!	!	!	!
8c#\J	.	.	.	.	.	.	.	.	.	.	.	.	.	.
.	.	.	16ff#\Jk	.	16aa\Jk	.	.	.	.	.	.	.	.	.
=46	=46	=46	=46	=46	=46	=46	=46	=46	=46	=46	=46	=46	=46	=46
4d\	.	.	16r	.	16r	.	2ryy	.	.	.	.	.	2ryy	2ryy
!	!	!	!	!	!LO:SIC:o=16ff#\LL	!	!	!	!	!	!	!	!	!
.	.	.	16dd'\LL	.	16ff#'LL	.	.	.	.	.	.	.	.	.
!	!	!	!	!	!LO:SIC:o=16ff#\	!	!	!	!	!	!	!	!	!
.	.	.	16dd'\	.	16ff#'	.	.	.	.	.	.	.	.	.
!	!	!	!	!	!LO:SIC:o=16ff#\JJ	!	!	!	!	!	!	!	!	!
.	.	.	16dd'\JJ	.	16ff#'JJ	.	.	.	.	.	.	.	.	.
4c\	.	.	16r	.	16r	.	.	.	.	.	.	.	.	.
!	!	!	!	!	!LO:SIC:o=16ff#\LL	!	!	!	!	!	!	!	!	!
.	.	.	16dd'\LL	.	16ff#'LL	.	.	.	.	.	.	.	.	.
!	!	!	!	!	!LO:SIC:o=16ff#\	!	!	!	!	!	!	!	!	!
.	.	.	16dd'\	.	16ff#'	.	.	.	.	.	.	.	.	.
!	!	!	!	!	!LO:SIC:o=16ff#\JJ	!	!	!	!	!	!	!	!	!
.	.	.	16dd'\JJ	.	16ff#'JJ	.	.	.	.	.	.	.	.	.
=47	=47	=47	=47	=47	=47	=47	=47	=47	=47	=47	=47	=47	=47	=47
4B\	.	.	16r	.	16r	.	2ryy	.	.	.	.	.	2ryy	2ryy
!	!	!	!	!	!LO:SIC:o=16ff#\LL	!	!	!	!	!	!	!	!	!
.	.	.	16dd'\LL	.	16ff#'LL	.	.	.	.	.	.	.	.	.
!	!	!	!	!	!LO:SIC:o=16ff#\	!	!	!	!	!	!	!	!	!
.	.	.	16dd'\	.	16ff#'	.	.	.	.	.	.	.	.	.
!	!	!	!	!	!LO:SIC:o=16ff#\JJ	!	!	!	!	!	!	!	!	!
.	.	.	16dd'\JJ	.	16ff#'JJ	.	.	.	.	.	.	.	.	.
4A\	.	.	16r	.	16r	.	.	.	.	.	.	.	.	.
!	!	!	!	!	!LO:SIC:o=16ff#\LL	!	!	!	!	!	!	!	!	!
.	.	.	16dd'\LL	.	16ff#'LL	.	.	.	.	.	.	.	.	.
!	!	!	!	!	!LO:SIC:o=16ff#\	!	!	!	!	!	!	!	!	!
.	.	.	16dd'\	.	16ff#'	.	.	.	.	.	.	.	.	.
!	!	!	!	!	!LO:SIC:o=16ff#\JJ	!	!	!	!	!	!	!	!	!
.	.	.	16dd'\JJ	.	16ff#'JJ	.	.	.	.	.	.	.	.	.
!	!	!	!	!	!LO:LB:g=original	!	!	!	!	!	!	!	!	!
=48	=48	=48	=48	=48	=48	=48	=48	=48	=48	=48	=48	=48	=48	=48
8r	.	.	16r	.	16r	.	2ryy	.	.	.	.	.	2ryy	2ryy
.	.	.	16dd\	.	16ff#\	.	.	.	.	.	.	.	.	.
!LO:TX:a:t=P:problem=mixed beam	!	!	!	!	!LO:TUP:problem=klamra łukowa	!	!	!	!	!	!	!	!	!
8G\L	6	.	24dd\LL	.	24ff#\LL	.	.	.	.	.	.	.	.	.
!	!	!	!LO:SIC:v:o=24cc\	!	!	!	!	!	!	!	!	!	!	!
.	.	.	24cc#\	.	24ee\	.	.	.	.	.	.	.	.	.
!	!	!	!LO:SIC:v:o=24dd\JJ	!	!	!	!	!	!	!	!	!	!	!
.	.	.	24ee\JJ	.	24gg\JJ	.	.	.	.	.	.	.	.	.
!	!	!	!LO:LB:g=original	!	!	!	!	!	!	!	!	!	!	!
8A\	4	.	8ee\L	.	8ee\L	.	.	.	.	.	.	.	.	.
!	!	!	!	!	!LO:SIC:v:o=8dd\J	!	!	!	!	!	!	!	!	!
8AA/J	3	.	8cc#X\J	.	8cc#\J	.	.	.	.	.	.	.	.	.
=49	=49	=49	=49	=49	=49	=49	=49	=49	=49	=49	=49	=49	=49	=49
!	!	!	!LO:TX:a:t=P:problem=mixed beam	!	!LO:TX:a:t=P:problem=mixed beam	!	!	!	!	!	!	!	!	!
!	!	!	!LO:SIC:v:o=16cc\LL	!	!	!	!	!	!	!	!	!	!	!
8D/L	.	.	16dd\LL	.	16dd\LL	.	2ryy	.	.	2r	.	.	2ryy	2ryy
.	.	.	16d/	.	16d/	.	.	.	.	.	.	.	.	.
8AA/J	.	.	16f#/	.	16f#/	.	.	.	.	.	.	.	.	.
.	.	.	16a/JJ	.	16a/JJ	.	.	.	.	.	.	.	.	.
4DD/	.	.	4d/	.	4d/	.	.	.	.	.	.	.	.	.
=50	=50	=50	=50	=50	=50	=50	=50	=50	=50	=50	=50	=50	=50	=50
!	!	!	!	!	!	!LO:MO:null:mod=!LO&colon;DY&colon;ed=brack	!	!	!	!	!	!	!	!
!	!	!	!	!	!	!null	!	!	!	!	!	!	!	!
!	!	!LO:DY:b:t=pu	!	!	!	!LO:MO:null:mod=p	!	!	!	!	!	!	!	!
8D\L	.	p	8.f#/L	p	8.a/L	.	2ryy	.	.	8.a\	Do-	Do-	2ryy	2ryy
8D\	.	.	.	.	.	.	.	.	.	.	.	.	.	.
!	!	!	!	!	!LO:SIC:o=16b/	!	!	!	!	!	!	!	!	!
.	.	.	16g/Jk	.	16bJk	.	.	.	.	16b\	-mi-	-mi-	.	.
!	!	!	!	!	!LO:SIC:o=8.a/	!	!	!	!	!	!	!	!	!
8D\	.	.	8.f#/L	.	8.aL	.	.	.	.	8a\L	-ne	-ne	.	.
8D\J	.	.	.	.	.	.	.	.	.	8b\J	.	.	.	.
.	.	.	16g/Jk	.	16b/Jk	.	.	.	.	.	.	.	.	.
=51	=51	=51	=51	=51	=51	=51	=51	=51	=51	=51	=51	=51	=51	=51
8D\L	.	.	16a/LL	.	16ccn\LL	.	2ryy	.	.	16ccn\LL	De-	De-	2ryy	2ryy
.	.	.	16g/J	.	16b\J	.	.	.	.	16b\JJ	.	.	.	.
!LO:SIC:v:o=8B\	!	!	!	!	!	!	!	!	!	!	!	!	!	!
8A\	.	.	8a/J	.	8cc\J	.	.	.	.	8cc\	-us	-us	.	.
8F#\	.	.	16r	.	16r	.	.	.	.	16r	.	.	.	.
.	.	.	16cc/LL	.	16ee\LL	.	.	.	.	16ee\	Ag-	Ag-	.	.
8D\J	.	.	16b/	.	16dd\	.	.	.	.	16dd\LL	-nus	-nus	.	.
.	.	.	16a/JJ	.	16cc\JJ	.	.	.	.	16cc\JJ	.	.	.	.
=52	=52	=52	=52	=52	=52	=52	=52	=52	=52	=52	=52	=52	=52	=52
8G\L	.	.	16g/LL	.	16b/LL	.	2ryy	.	.	16b\LL	De-	De-	2ryy	2ryy
.	.	.	16f#/J	.	16a/J	.	.	.	.	16a\JJ	.	.	.	.
8G\	.	.	8g/J	.	8g/J	.	.	.	.	8g\	-i	-i	.	.
8B\	.	.	8r	.	8r	.	.	.	.	8r	.	.	.	.
8B\J	.	.	8dd\	.	8dd\	.	.	.	.	8dd\	Ag-	Ag-	.	.
=53	=53	=53	=53	=53	=53	=53	=53	=53	=53	=53	=53	=53	=53	=53
8B\L	.	.	16gg\LL	.	16gg\LL	.	2ryy	.	.	16gg\LL	.	.	2ryy	2ryy
.	.	.	16ff#\	.	16ff#\	.	.	.	.	16ff#\JJ	.	.	.	.
!	!	!	!LO:SIC:o=(16ee\	!	!	!	!	!	!	!	!	!	!	!
8B\	.	.	16ee	.	16ee\	.	.	.	.	16ee\LL	.	.	.	.
!	!	!	!LO:SIC:o=16dd\JJ)	!	!	!	!	!	!	!	!	!	!	!
.	.	.	16ddJJ	.	16dd\JJ	.	.	.	.	16dd\JJ	.	.	.	.
!	!	!	!	!	!	!	!	!	!	!LO:LB:g=original	!	!	!	!
8A\	.	.	16ee\LL	.	16cc\LL	.	.	.	.	8cc\	.	.	.	.
!	!	!	!LO:SIC:o=(16dd\	!	!	!	!	!	!	!	!	!	!	!
.	.	.	16dd	.	16b\	.	.	.	.	.	.	.	.	.
!	!	!	!LO:SIC:o=16cc\)	!	!	!	!	!	!	!	!	!	!	!
8G\J	.	.	16cc	.	16a\	.	.	.	.	8b\	-nus	-nus	.	.
.	.	.	16b\JJ	.	16g\JJ	.	.	.	.	.	.	.	.	.
!LO:LB:g=original	!	!	!	!	!	!	!	!	!	!	!	!	!	!
=54	=54	=54	=54	=54	=54	=54	=54	=54	=54	=54	=54	=54	=54	=54
!LO:TX:a:t=P:problem=mixed beam	!	!	!	!	!	!	!	!	!	!	!	!	!	!
16D/LL	.	.	8b/L	.	8b/L	.	2ryy	.	.	8b\	De-	De-	2ryy	2ryy
16d\	.	.	.	.	.	.	.	.	.	.	.	.	.	.
16A\	.	.	8a/J	.	8a/J	.	.	.	.	8a\	-i	-i	.	.
16F#\JJ	.	.	.	.	.	.	.	.	.	.	.	.	.	.
4D/	.	.	8r	.	8r	.	.	.	.	4r	.	.	.	.
.	.	.	8d/	.	8d/	.	.	.	.	.	.	.	.	.
=55	=55	=55	=55	=55	=55	=55	=55	=55	=55	=55	=55	=55	=55	=55
!	!	!	!	!	!LO:SIC:o=16cc/LL	!	!	!	!	!	!	!	!	!
8D\L	.	.	4a/	.	(16ccLL	.	2ryy	.	.	16cc\LL	Fi-	Fi-	2ryy	2ryy
.	.	.	.	.	16a/	.	.	.	.	16a\JJ	.	.	.	.
8A\	.	.	.	.	16f#/	.	.	.	.	16f#\LL	-li-	-li-	.	.
!	!	!	!	!	!LO:SIC:o=16d/JJ	!	!	!	!	!	!	!	!	!
.	.	.	.	.	16dJJ)	.	.	.	.	16a\JJ	.	.	.	.
!	!	!	!LO:SIC:o=16cc/LL	!	!	!	!	!	!	!	!	!	!	!
8F#\	.	.	(16ccLL	.	8cc\	.	.	.	.	4cc\	-us	-us	.	.
.	.	.	16a/	.	.	.	.	.	.	.	.	.	.	.
8D\J	.	.	16f#/	.	8r	.	.	.	.	.	.	.	.	.
!	!	!	!LO:SIC:o=16d/JJ	!	!	!	!	!	!	!	!	!	!	!
.	.	.	16dJJ)	.	.	.	.	.	.	.	.	.	.	.
=56	=56	=56	=56	=56	=56	=56	=56	=56	=56	=56	=56	=56	=56	=56
!	!	!	!	!	!LO:SIC:o=16dd/LL	!	!	!	!	!	!	!	!	!
8G\L	.	.	4b/	.	(16ddLL	.	2ryy	.	.	16dd\LL	Pa-	Pa-	2ryy	2ryy
.	.	.	.	.	16b/	.	.	.	.	16b\JJ	.	.	.	.
8D\J	.	.	.	.	16g/	.	.	.	.	16g\LL	.	.	.	.
!	!	!	!	!	!LO:SIC:o=16d/JJ	!	!	!	!	!	!	!	!	!
.	.	.	.	.	16dJJ)	.	.	.	.	16b\JJ	.	.	.	.
!	!	!	!LO:SIC:o=16dd/LL	!	!	!	!	!	!	!	!	!	!	!
8BB/L	.	.	(16ddLL	.	8dd\	.	.	.	.	4dd\	-tris	-tris	.	.
.	.	.	16b/	.	.	.	.	.	.	.	.	.	.	.
8GG/J	.	.	16g/	.	8r	.	.	.	.	.	.	.	.	.
!	!	!	!LO:SIC:o=16d/JJ	!	!	!	!	!	!	!	!	!	!	!
.	.	.	16dJJ)	.	.	.	.	.	.	.	.	.	.	.
=57	=57	=57	=57	=57	=57	=57	=57	=57	=57	=57	=57	=57	=57	=57
!	!	!	!	!	!LO:SIC:o=16cc/LL	!	!	!	!	!	!	!	!	!
8D\L	.	.	4a/	.	(16ccLL	.	2ryy	.	.	16cc\LL	Fi-	Fi-	2ryy	2ryy
.	.	.	.	.	16a/	.	.	.	.	16a\JJ	.	.	.	.
8A\	.	.	.	.	16f#/	.	.	.	.	16f#\LL	-li-	-li-	.	.
!	!	!	!	!	!LO:SIC:o=16d/JJ	!	!	!	!	!	!	!	!	!
.	.	.	.	.	16dJJ)	.	.	.	.	16a\JJ	.	.	.	.
!	!	!	!LO:SIC:o=16cc/LL	!	!	!	!	!	!	!	!	!	!	!
8F#\	.	.	(16ccLL	.	8cc\	.	.	.	.	4cc\	-us	-us	.	.
.	.	.	16a/	.	.	.	.	.	.	.	.	.	.	.
8D\J	.	.	16f#/	.	8r	.	.	.	.	.	.	.	.	.
!	!	!	!LO:SIC:o=16d/JJ	!	!	!	!	!	!	!	!	!	!	!
.	.	.	16dJJ)	.	.	.	.	.	.	.	.	.	.	.
!	!	!	!	!	!LO:LB:g=original	!	!	!	!	!	!	!	!	!
=58	=58	=58	=58	=58	=58	=58	=58	=58	=58	=58	=58	=58	=58	=58
!	!	!	!LO:MO:null:mod=*null	!	!	!	!	!	!	!	!	!	!	!
*	*	*	*tremolo	*	*	*	*	*	*	*	*	*	*	*
!	!	!	!LO:SIC:o=16g/LL	!	!	!	!	!	!	!	!	!	!	!
4G\	.	.	16g'LL	.	16b'/LL	.	2ryy	.	.	4g\	Pa-	Pa-	2ryy	2ryy
!	!	!	!LO:SIC:o=16g/	!	!	!	!	!	!	!	!	!	!	!
.	.	.	16g'	.	16b'/	.	.	.	.	.	.	.	.	.
!	!	!	!LO:SIC:o=16g/	!	!	!	!	!	!	!	!	!	!	!
.	.	.	16g'	.	16b'/	.	.	.	.	.	.	.	.	.
!	!	!	!LO:SIC:o=16g/JJ	!	!	!	!	!	!	!	!	!	!	!
.	.	.	16g'JJ	.	16b'/JJ	.	.	.	.	.	.	.	.	.
!	!	!	!LO:MO:null:mod=*tremolo	!	!	!	!	!	!	!	!	!	!	!
*	*	*	*null	*	*tremolo	*	*	*	*	*	*	*	*	*
!	!	!	!LO:SIC:o=16g/LL	!	!LO:TX:b:t=....:mod=	!	!	!	!	!	!	!	!	!
4GG/	.	.	16g'LL	.	16b'/LL	.	.	.	.	4b\	.	.	.	.
!	!	!	!LO:SIC:o=16g/	!	!	!	!	!	!	!	!	!	!	!
.	.	.	16g'	.	16b'/	.	.	.	.	.	.	.	.	.
!	!	!	!LO:SIC:o=16g/	!	!	!	!	!	!	!	!	!	!	!
.	.	.	16g'	.	16b'/	.	.	.	.	.	.	.	.	.
!	!	!	!LO:SIC:o=16g/JJ	!	!	!	!	!	!	!	!	!	!	!
.	.	.	16g'JJ	.	16b'/JJ	.	.	.	.	.	.	.	.	.
!	!	!	!LO:LB:g=original	!	!	!	!	!	!	!	!	!	!	!
=59	=59	=59	=59	=59	=59	=59	=59	=59	=59	=59	=59	=59	=59	=59
!	!	!	!LO:SIC:o=16g/LL	!	!LO:SIC:o=16b/LL	!	!	!	!	!	!	!	!	!
4G\	.	.	16g'LL	.	16b'LL	.	2ryy	.	.	4dd\	.	.	2ryy	2ryy
!	!	!	!LO:SIC:o=16g/	!	!LO:SIC:o=16b/	!	!	!	!	!	!	!	!	!
.	.	.	16g'	.	16b'	.	.	.	.	.	.	.	.	.
!	!	!	!LO:SIC:o=16g/	!	!LO:SIC:o=16b/	!	!	!	!	!	!	!	!	!
.	.	.	16g'	.	16b'	.	.	.	.	.	.	.	.	.
!	!	!	!LO:SIC:o=16g/JJ	!	!LO:SIC:o=16b/JJ	!	!	!	!	!	!	!	!	!
.	.	.	16g'	.	16b'	.	.	.	.	.	.	.	.	.
!	!	!	!LO:SIC:o=16g/LL	!	!LO:SIC:o=16b/LL	!	!	!	!	!	!	!	!	!
4GG/	.	.	16g'	.	16b'	.	.	.	.	4gg\	.	.	.	.
!	!	!	!LO:SIC:o=16g/	!	!LO:SIC:o=16b/	!	!	!	!	!	!	!	!	!
.	.	.	16g'	.	16b'	.	.	.	.	.	.	.	.	.
!	!	!	!LO:SIC:o=16g/	!	!LO:SIC:o=16b/	!	!	!	!	!	!	!	!	!
.	.	.	16g'	.	16b'	.	.	.	.	.	.	.	.	.
!	!	!	!LO:SIC:o=16g/JJ	!	!LO:SIC:o=16b/JJ	!	!	!	!	!	!	!	!	!
.	.	.	16g'JJ	.	16b'JJ	.	.	.	.	.	.	.	.	.
*	*	*	*Xtremolo	*	*Xtremolo	*	*	*	*	*	*	*	*	*
=60	=60	=60	=60	=60	=60	=60	=60	=60	=60	=60	=60	=60	=60	=60
!	!	!	!	!	!	!	!	!	!	!LO:MO:null:mod=*null	!	!	!	!
*	*	*	*	*	*	*	*	*	*	*Xtuplet	*	*	*	*
8r	.	.	8.g/L	.	4b/	.	2ryy	.	.	24gg\LL	.	.	2ryy	2ryy
.	.	.	.	.	.	.	.	.	.	24ff#\	.	.	.	.
.	.	.	.	.	.	.	.	.	.	24gg\JJ	.	.	.	.
!LO:TX:a:t=P:problem=mixed beam	!	!	!	!	!	!	!	!	!	!	!	!	!	!
8c\L	6	.	.	.	.	.	.	.	.	24ee\LL	.	.	.	.
.	.	.	.	.	.	.	.	.	.	24dd\	.	.	.	.
.	.	.	16cc/Jk	.	.	.	.	.	.	.	.	.	.	.
.	.	.	.	.	.	.	.	.	.	24cc\JJ	.	.	.	.
8d\	6 4	.	8.b/L	.	8b/L	.	.	.	.	8b\L	.	.	.	.
8D/J	x 3	.	.	.	8a/J	.	.	.	.	8a\J	.	.	.	.
.	.	.	16a/Jk	.	.	.	.	.	.	.	.	.	.	.
=61	=61	=61	=61	=61	=61	=61	=61	=61	=61	=61	=61	=61	=61	=61
!	!	!	!	!LO:MO:null:mod=!LO&colon;DY&colon;ed=brack	!	!	!	!	!	!	!	!	!	!
!	!	!	!	!null	!	!	!	!	!	!	!	!	!	!
!LO:TX:a:t=P:problem=mixed beam	!	!LO:DY:rj	!	!LO:MO:null:mod=f	!LO:TX:a:t=P:problem=mixed beam	!	!	!	!	!	!	!	!	!
8G\L	.	f	16g/LL	.	16g/LL	f	2ryy	.	.	4g\	-tris	-tris	2ryy	2ryy
!	!	!	!LO:SIC:o=16b/	!	!	!	!	!	!	!	!	!	!	!
.	.	.	(16b	.	(16gg\	.	.	.	.	.	.	.	.	.
8G\	.	.	16a/	.	16ff#\	.	.	.	.	.	.	.	.	.
!	!	!	!LO:SIC:o=16b/JJ	!	!	!	!	!	!	!	!	!	!	!
.	.	.	16bJJ)	.	16gg\JJ)	.	.	.	.	.	.	.	.	.
!	!	!	!LO:TX:a:t=P:problem=mixed beam	!	!LO:TX:a:t=P:problem=mixed beam	!	!	!	!	!	!	!	!	!
8d\	.	.	16cc\LL	.	16aa\LL	.	.	.	.	4r	.	.	.	.
!	!	!	!LO:SIC:o=16f#/	!	!	!	!	!	!	!	!	!	!	!
.	.	.	(16f#	.	(16a/	.	.	.	.	.	.	.	.	.
8D/J	.	.	16g/	.	16b/	.	.	.	.	.	.	.	.	.
!	!	!	!LO:SIC:o=16a/JJ	!	!	!	!	!	!	!	!	!	!	!
.	.	.	16aJJ)	.	16cc/JJ)	.	.	.	.	.	.	.	.	.
=62	=62	=62	=62	=62	=62	=62	=62	=62	=62	=62	=62	=62	=62	=62
!LO:TX:a:t=P:problem=mixed beam	!	!	!	!	!	!	!	!	!	!LO:TX:a:t=3:mod=	!	!	!	!
!	!	!	!	!	!	!	!	!	!	!LO:N:vis=0	!	!	!	!
8G\L	.	.	16g/LL	.	16b\LL	.	2ryy	.	.	1r	.	.	2ryy	2ryy
!	!	!	!LO:SIC:o=16b/	!	!	!	!	!	!	!	!	!	!	!
.	.	.	(16b	.	(16gg\	.	.	.	.	.	.	.	.	.
8G\	.	.	16a/	.	16ff#\	.	.	.	.	.	.	.	.	.
!	!	!	!LO:SIC:o=16b/JJ	!	!	!	!	!	!	!	!	!	!	!
.	.	.	16bJJ)	.	16gg\JJ)	.	.	.	.	.	.	.	.	.
!	!	!	!LO:TX:a:t=P:problem=mixed beam	!	!LO:TX:a:t=P:problem=mixed beam	!	!	!	!	!	!	!	!	!
8d\	.	.	16cc\LL	.	16aa\LL	.	.	.	.	.	.	.	.	.
!	!	!	!LO:SIC:o=16f#/	!	!	!	!	!	!	!	!	!	!	!
.	.	.	(16f#	.	(16a/	.	.	.	.	.	.	.	.	.
8D/J	.	.	16g/	.	16b/	.	.	.	.	.	.	.	.	.
!	!	!	!LO:SIC:o=16a/JJ	!	!	!	!	!	!	!	!	!	!	!
.	.	.	16aJJ)	.	16cc/JJ)	.	.	.	.	.	.	.	.	.
=63	=63	=63	=63	=63	=63	=63	=63	=63	=63	=63	=63	=63	=63	=63
!LO:TX:a:t=P:problem=mixed beam	!	!	!	!	!LO:TUP:b:problem=klamra łukowa	!	!	!	!	!	!	!	!	!
8G\L	.	.	24g/LL	.	24b/LL	.	2ryy	.	.	.	.	.	2ryy	2ryy
.	.	.	24a/	.	24a/	.	.	.	.	.	.	.	.	.
.	.	.	24b/JJ	.	24b/JJ	.	.	.	.	.	.	.	.	.
!	!	!	!	!	!LO:TUP:b:problem=klamra łukowa	!	!	!	!	!	!	!	!	!
8c\	.	.	24cc/LL	.	24cc/LL	.	.	.	.	.	.	.	.	.
.	.	.	24b/	.	24b/	.	.	.	.	.	.	.	.	.
.	.	.	24a/JJ	.	24a/JJ	.	.	.	.	.	.	.	.	.
8d\	.	.	8g/L	.	8g/L	.	.	.	.	.	.	.	.	.
8D/J	.	.	8f#/J	.	8f#/J	.	.	.	.	.	.	.	.	.
=64	=64	=64	=64	=64	=64	=64	=64	=64	=64	=64	=64	=64	=64	=64
!	!	!	!LO:MO:null:mod=8qqf#	!	!	!	!	!	!	!	!	!	!	!
.	.	.	.	.	8qqf#/	.	.	.	.	.	.	.	.	.
8G\L	.	.	4g/	.	4g/	.	2ryy	.	.	2r	.	.	2ryy	2ryy
8D\J	.	.	.	.	.	.	.	.	.	.	.	.	.	.
!LO:TX:a:t=P:problem=podwójna kreska taktowa	!	!	!LO:TX:a:t=P:problem=podwójna kreska taktowa	!	!LO:TX:a:t=P:problem=podwójna kreska taktowa	!	!	!	!	!	!	!	!	!
!	!	!	!	!	!LO:TX:b:i:t=Quitollis Verte Cito:mod=	!	!	!	!	!	!	!	!	!
4GG/	.	.	4r	.	4r	.	.	.	.	.	.	.	.	.
!	!	!	!	!	!LO:PB:g=original	!	!	!	!	!LO:LB:g=original	!	!	!	!
=65||	=65||	=65||	=65||	=65||	=65||	=65||	=65||	=65||	=65||	=65||	=65||	=65||	=65||	=65||
!!!OMD:
!!!OMD-mod: Adagio
!LO:MO:null:mod=*null	!	!	!LO:MO:null:mod=*null	!	!	!	!	!	!	!	!	!	!	!
*clefF4	*	*	*clefG2	*	*	*	*	*	*	*	*	*	*	*
*k[e-b-]	*	*	*k[e-b-]	*	*k[e-b-]	*	*k[e-b-]	*	*	*k[e-b-]	*	*	*	*
*mk[b-e-]	*	*	*mk[b-e-]	*	*mk[b-e-]	*	*mk[b-e-]	*	*	*mk[b-e-]	*	*	*	*
*M4/4	*	*	*M4/4	*	*M4/4	*	*M4/4	*	*	*M4/4	*	*	*M4/4	*M4/4
*met(c)	*	*	*met(c)	*	*met(c)	*	*met(c)	*	*	*met(c)	*	*	*met(c)	*met(c)
*mmet(c)	*	*	*mmet(c)	*	*mmet(c)	*	*mmet(c)	*	*	*mmet(c)	*	*	*mmet(c)	*mmet(c)
!LO:TX:b:i:t=Quitollis:mod=	!	!	!LO:TX:b:i:t=Quitollis:mod=	!	!LO:TX:b:i:t=Quitollis:mod=	!	!	!	!	!LO:TX:a:t=P:problem=znaki ee- b-	!	!	!	!
!LO:MO:mod=!LO&colon;TX&colon;a&colon;i&colon;t=Tutti	!	!	!	!	!	!	!	!	!	!	!	!	!	!
!LO:TX:a:t=Ada Tutti	!	!	!LO:TX:a:t=Ada:mod=	!	!LO:TX:a:i:t=Ada:mod=	!	!LO:TX:a:t=Ada:mod=	!	!	!LO:TX:a:t=Ada:mod=	!	!	!	!
!	!	!	!LO:SIC:o=16dd\LL	!	!	!	!	!	!	!	!	!	!	!
8G\L	.	.	16ddLL|	.	16dd\LL|	.	4G\	Qui	Qui	4dd\	Qui	Qui	1ryy	1ryy
!	!	!	!LO:SIC:o=16b-\	!	!	!	!	!	!	!	!	!	!	!
.	.	.	(16b-	.	(16b-\	.	.	.	.	.	.	.	.	.
!	!	!	!LO:SIC:o=16a\	!	!	!	!	!	!	!	!	!	!	!
8G\	.	.	16a)	.	16a\)	.	.	.	.	.	.	.	.	.
.	.	.	16g\JJ	.	16g\JJ	.	.	.	.	.	.	.	.	.
!	!	!	!LO:SIC:o=16dd\LL	!	!	!	!	!	!	!	!	!	!	!
8G\	.	.	16ddLL|	.	16dd\LL|	.	4G\	tol-	tol-	4dd\	tol-	tol-	.	.
!	!	!	!LO:SIC:o=16b-\	!	!	!	!	!	!	!	!	!	!	!
.	.	.	(16b-	.	(16b-\	.	.	.	.	.	.	.	.	.
!	!	!	!LO:SIC:o=16a\	!	!	!	!	!	!	!	!	!	!	!
8G\J	.	.	16a)	.	16a\)	.	.	.	.	.	.	.	.	.
.	.	.	16g\JJ	.	16g\JJ	.	.	.	.	.	.	.	.	.
!	!	!	!LO:SIC:o=16ee-X\LL	!	!	!	!	!	!	!	!	!	!	!
8F#X\L	.	.	16ee-LL|	.	16ee-\LL|	.	4F#X\	-lis	-lis	4ee-X\	-lis	-lis	.	.
!	!	!	!LO:SIC:o=16cc\	!	!	!	!	!	!	!	!	!	!	!
.	.	.	(16cc	.	(16cc\	.	.	.	.	.	.	.	.	.
!	!	!	!LO:SIC:o=16b-\	!	!	!	!	!	!	!	!	!	!	!
8F#\	.	.	16b-)	.	16b-\)	.	.	.	.	.	.	.	.	.
.	.	.	16a\JJ	.	16a\JJ	.	.	.	.	.	.	.	.	.
!	!	!	!LO:SIC:o=16ee-\LL	!	!	!	!	!	!	!	!	!	!	!
8F#\	.	.	16ee-LL|	.	16ee-\LL|	.	4F#\	pec-	pec-	4ee-\	pec-	pec-	.	.
!	!	!	!LO:SIC:o=16cc\	!	!	!	!	!	!	!	!	!	!	!
.	.	.	(16cc	.	(16cc\	.	.	.	.	.	.	.	.	.
!	!	!	!LO:SIC:o=16b-\	!	!	!	!	!	!	!	!	!	!	!
8F#\J	.	.	16b-)	.	16b-\)	.	.	.	.	.	.	.	.	.
.	.	.	16a\JJ	.	16a\JJ	.	.	.	.	.	.	.	.	.
!	!	!	!LO:LB:g=original	!	!	!	!	!	!	!	!	!	!	!
=66	=66	=66	=66	=66	=66	=66	=66	=66	=66	=66	=66	=66	=66	=66
!	!	!	!LO:SIC:o=16dd\LL	!	!	!	!	!	!	!	!	!	!	!
8G\L	.	.	16ddLL|	.	16dd\LL|	.	8G\L	-ca-	-ca-	4dd\	-ca-	-ca-	1ryy	1ryy
.	.	.	(16b-\	.	(16b-\	.	.	.	.	.	.	.	.	.
8G\	.	.	16a\)	.	16a\)	.	8A\J	.	.	.	.	.	.	.
.	.	.	16g\JJ	.	16g\JJ	.	.	.	.	.	.	.	.	.
!	!	!	!LO:SIC:o=16dd\LL	!	!	!	!	!	!	!LO:SIC:o=(8dd\	!	!	!	!
8G\	.	.	16ddLL|	.	16dd\LL|	.	8B-\L	-ta	-ta	8ddL	-ta	-ta	.	.
.	.	.	(16b-\	.	(16b-\	.	.	.	.	.	.	.	.	.
!	!	!	!	!	!	!	!	!	!	!LO:SIC:o=8cc\)	!	!	!	!
8G\J	.	.	16a\)	.	16a\)	.	8c\J	.	.	8ccJ	.	.	.	.
.	.	.	16g\JJ	.	16g\JJ	.	.	.	.	.	.	.	.	.
!LO:TX:a:t=P:problem=mixed beam	!	!	!	!	!	!	!	!	!	!	!	!	!	!
8d\L	6 4	.	8g/L	.	8b-/L	.	8d\	mun-	mun-	8b-\	mun-	mun-	.	.
8D/J	x 3	.	8f#X/J	.	8a/J	.	8D/	-di	-di	8a\	-di	-di	.	.
4r	.	.	4dd\	.	8dd\L	.	4r	.	.	8dd\	mi-	mi-	.	.
.	.	.	.	.	8gg\J	.	.	.	.	8dd\	-se-	-se-	.	.
!LO:LB:g=original	!	!	!	!	!	!	!	!	!	!	!	!	!	!
=67	=67	=67	=67	=67	=67	=67	=67	=67	=67	=67	=67	=67	=67	=67
4r	.	.	4ee-X\	.	4ee-X\	.	4r	.	.	4ee-X\	-re-	-re-	1ryy	1ryy
8G\L	.	.	4een\	.	4een\	.	8G\	mi-	mi-	4een\	-re	-re	.	.
8c\J	.	.	.	.	.	.	8c\	-se-	-se-	.	.	.	.	.
8A\L	.	.	16ff\LL|	.	16ff\LL|	.	8A\	-re-	-re-	8ff\	no-	no-	.	.
.	.	.	(16cc\	.	(16cc\	.	.	.	.	.	.	.	.	.
8F\	.	.	16b-\)	.	16b-\)	.	8F\	-re	-re	8f/	-bis	-bis	.	.
.	.	.	16a\JJ	.	16a\JJ	.	.	.	.	.	.	.	.	.
8F\	.	.	16ff\LL|	.	16ff\LL|	.	8F\	sus-	sus-	8ff\	Sus-	sus-	.	.
.	.	.	(16cc\	.	(16cc\	.	.	.	.	.	.	.	.	.
8F\J	.	.	16b-\)	.	16b-\)	.	16F\	-ci-	-ci-	16ff\	-ci-	-ci-	.	.
.	.	.	16a\JJ	.	16a\JJ	.	16F\	-pe	-pe	16ff\	-pe	-pe	.	.
=68	=68	=68	=68	=68	=68	=68	=68	=68	=68	=68	=68	=68	=68	=68
*tremolo	*	*	*	*	*	*	*	*	*	*	*	*	*	*
8B-\L	.	.	16ff\LL|	.	16ff\LL|	.	8BB-/	de-	de-	8ff\	de-	de-	1ryy	1ryy
.	.	.	(16dd\	.	(16dd\	.	.	.	.	.	.	.	.	.
8B-\	.	.	16cc\)	.	16cc\)	.	8BB-/	-pre-	-pre-	8ff\	-pre-	-pre-	.	.
.	.	.	16b-\JJ	.	16b-\JJ	.	.	.	.	.	.	.	.	.
8B-\	.	.	16ff\LL|	.	16ff\LL|	.	8BB-/	-ca-	-ca-	8ff\	-ca-	-ca-	.	.
.	.	.	(16dd\	.	(16d\	.	.	.	.	.	.	.	.	.
8B-\J	.	.	16cc\)	.	16c\)	.	8BB-/	-ti-	-ti-	8ff\	-ti-	-ti-	.	.
.	.	.	16b-\JJ	.	16b-\JJ	.	.	.	.	.	.	.	.	.
!	!	!	!	!	!	!	!LO:LB:g=original	!	!	!	!	!	!	!
8F\L	7	.	16ff\LL|	.	16ff\LL|	.	4AA/	-o-	-o-	4ff\	-o-	-o-	.	.
.	.	.	(16cc\	.	(16cc\	.	.	.	.	.	.	.	.	.
8F\	.	.	16b-\)	.	16b-\)	.	.	.	.	.	.	.	.	.
.	.	.	16a\JJ	.	16a\JJ	.	.	.	.	.	.	.	.	.
8F\	.	.	16ff\LL|	.	16ff\LL|	.	4AA/	-nem	-nem	4ff\	-nem	-nem	.	.
.	.	.	(16cc\	.	(16cc\	.	.	.	.	.	.	.	.	.
8F\J	.	.	16b-\)	.	16b-\)	.	.	.	.	.	.	.	.	.
.	.	.	16a\JJ	.	16a\JJ	.	.	.	.	.	.	.	.	.
*Xtremolo	*	*	*	*	*	*	*	*	*	*	*	*	*	*
!	!	!	!	!	!LO:LB:g=original	!	!	!	!	!	!	!	!	!
=69	=69	=69	=69	=69	=69	=69	=69	=69	=69	=69	=69	=69	=69	=69
!	!	!	!	!	!LO:SIC:o=16b-\LL	!	!	!	!	!	!	!	!	!
8B-\L	.	.	16b-'\LL	.	16b-'LL	.	2BB-/	no-	no-	2b-\	no-	no-	1ryy	1ryy
!	!	!	!	!	!LO:SIC:o=16b-\	!	!	!	!	!	!	!	!	!
.	.	.	16b-'\	.	16b-'	.	.	.	.	.	.	.	.	.
!	!	!	!	!	!LO:SIC:o=16b-\	!	!	!	!	!	!	!	!	!
8B-\	.	.	16b-'\	.	16b-'	.	.	.	.	.	.	.	.	.
!	!	!	!	!	!LO:SIC:o=16b-\JJ	!	!	!	!	!	!	!	!	!
.	.	.	16b-'\JJ	.	16b-'JJ	.	.	.	.	.	.	.	.	.
*	*	*	*tremolo	*	*tremolo	*	*	*	*	*	*	*	*	*
!	!	!	!LO:TX:a:t=...:mod=	!	!	!	!	!	!	!	!	!	!	!
!	!	!	!LO:SIC:v:o=16a'\LL	!	!LO:SIC:o=16b-\LL	!	!	!	!	!	!	!	!	!
8B-\	.	.	16b-'\LL	.	16b-'LL	.	.	.	.	.	.	.	.	.
!	!	!	!LO:SIC:v:o=16a'\	!	!LO:SIC:o=16b-\	!	!	!	!	!	!	!	!	!
.	.	.	16b-'\	.	16b-'	.	.	.	.	.	.	.	.	.
!	!	!	!LO:SIC:v:o=16a'\	!	!LO:SIC:o=16b-\	!	!	!	!	!	!	!	!	!
8B-\J	.	.	16b-'\	.	16b-'	.	.	.	.	.	.	.	.	.
!	!	!	!LO:SIC:v:o=16a'\JJ	!	!LO:SIC:o=16b-\JJ	!	!	!	!	!	!	!	!	!
.	.	.	16b-'\JJ	.	16b-'JJ	.	.	.	.	.	.	.	.	.
*	*	*	*	*	*Xtremolo	*	*	*	*	*	*	*	*	*
4B-\	.	.	16dd\LL	.	16dd\LL	.	4BB-/	-stram	-stram	4b-\	-stram	-stram	.	.
.	.	.	16b-\	.	16b-\	.	.	.	.	.	.	.	.	.
.	.	.	16ff\	.	16ff\	.	.	.	.	.	.	.	.	.
.	.	.	16dd\JJ	.	16dd\JJ	.	.	.	.	.	.	.	.	.
8r	.	.	4bb-\	.	4bb-\	.	4r	.	.	4r	.	.	.	.
8B-\	.	.	.	.	.	.	.	.	.	.	.	.	.	.
!	!	!	!	!	!	!	!	!	!	!LO:LB:g=original	!	!	!	!
=70	=70	=70	=70	=70	=70	=70	=70	=70	=70	=70	=70	=70	=70	=70
!	!	!	!	!	!LO:MO:null:mod=*tremolo	!	!	!	!	!	!	!	!	!
*	*	*	*	*	*null	*	*	*	*	*	*	*	*	*
!	!	!	!LO:SIC:o=16g/LL	!	!LO:SIC:o=16een\LL	!	!	!	!	!	!	!	!	!
8c\L	.	.	16g'LL	.	16ee'LL	.	8G\	Su-	sus-	8een\	Sus-	sus-	1ryy	1ryy
!	!	!	!LO:SIC:o=16g/	!	!LO:SIC:o=16ee\	!	!	!	!	!	!	!	!	!
.	.	.	16g'	.	16ee'	.	.	.	.	.	.	.	.	.
!	!	!	!LO:SIC:o=16g/	!	!LO:SIC:o=16ee\	!	!	!	!	!	!	!	!	!
8c\	.	.	16g'	.	16ee'	.	16G\	-sci-	-ci-	16ee\	-ci-	-ci-	.	.
!	!	!	!LO:SIC:o=16g/	!	!LO:SIC:o=16ee\JJ	!	!	!	!	!	!	!	!	!
.	.	.	16g'	.	16ee'	.	16G\	-pe	-pe	16ee\	-pe	-pe	.	.
*	*	*	*	*	*tremolo	*	*	*	*	*	*	*	*	*
!	!	!	!LO:SIC:o=16g/	!	!LO:SIC:o=16ee\LL	!	!	!	!	!	!	!	!	!
8c\	.	.	16g'	.	16ee'	.	8G\	de-	de-	8ee\	de-	de-	.	.
!	!	!	!LO:SIC:o=16g/	!	!LO:SIC:o=16ee\	!	!	!	!	!	!	!	!	!
.	.	.	16g'	.	16ee'	.	.	.	.	.	.	.	.	.
!	!	!	!LO:SIC:o=16g/	!	!LO:SIC:o=16ee\	!	!	!	!	!	!	!	!	!
8c\J	.	.	16g'	.	16ee'	.	8G\	-pre-	-pre-	8ee\	-pre-	-pre-	.	.
!	!	!	!LO:SIC:o=16g/JJ	!	!LO:SIC:o=16ee\JJ	!	!	!	!	!	!	!	!	!
.	.	.	16g'JJ	.	16ee'JJ	.	.	.	.	.	.	.	.	.
*	*	*	*Xtremolo	*	*Xtremolo	*	*	*	*	*	*	*	*	*
4A\	.	.	8a/L	.	8ff\L	.	8A\	-ca-	-ca-	8ff\	-ca-	-ca-	.	.
.	.	.	8f/J	.	8cc\J	.	8F\	-ti-	-ti-	8cc\	-ti-	-ti-	.	.
!	!	!	!LO:TX:b:t=Verte:mod=	!	!	!	!	!	!	!	!	!	!	!
8r	.	.	4cc\	.	4ee-X\	.	8F\	-on-	-o-	8ee-X\	-o-	-o-	.	.
8F\	.	.	.	.	.	.	8F\	-em	-nem	8ee-\	-nem	-nem	.	.
!	!	!	!LO:PB:g=original	!	!	!	!	!	!	!	!	!	!	!
=71	=71	=71	=71	=71	=71	=71	=71	=71	=71	=71	=71	=71	=71	=71
!	!	!	!LO:SIC:o=16b-\LL	!	!LO:SIC:o=16dd\LL	!	!LO:SIC:o=(4B-\	!	!	!	!	!	!	!
8B-\L	.	.	16b-'LL	.	16dd'LL	.	4B-	no-	no-	4dd\	no-	no-	1ryy	1ryy
!	!	!	!LO:SIC:o=16b-\	!	!LO:SIC:o=16dd\	!	!	!	!	!	!	!	!	!
.	.	.	16b-'	.	16dd'	.	.	.	.	.	.	.	.	.
!	!	!	!LO:SIC:o=16b-\	!	!LO:SIC:o=16dd\	!	!	!	!	!	!	!	!	!
8B-\	.	.	16b-'	.	16dd'	.	.	.	.	.	.	.	.	.
!	!	!	!LO:SIC:o=16b-\JJ	!	!LO:SIC:o=16dd\JJ	!	!	!	!	!	!	!	!	!
.	.	.	16b-'JJ	.	16dd'JJ	.	.	.	.	.	.	.	.	.
*	*	*	*tremolo	*	*tremolo	*	*	*	*	*	*	*	*	*
!	!	!	!LO:SIC:o=16a/LL	!	!LO:SIC:o=16cc\LL	!	!LO:SIC:o=4A\)	!	!	!	!	!	!	!
8F\	7	.	16a'LL	.	16cc'LL	.	4A	.	.	4cc\	.	.	.	.
!	!	!	!LO:SIC:o=16a/	!	!LO:SIC:o=16cc\	!	!	!	!	!	!	!	!	!
.	.	.	16a'	.	16cc'	.	.	.	.	.	.	.	.	.
!	!	!	!LO:SIC:o=16a/	!	!LO:SIC:o=16cc\	!	!	!	!	!	!	!	!	!
8F\J	.	.	16a'	.	16cc'	.	.	.	.	.	.	.	.	.
!	!	!	!LO:SIC:o=16a/JJ	!	!LO:SIC:o=16cc\JJ	!	!	!	!	!	!	!	!	!
.	.	.	16a'JJ	.	16cc'JJ	.	.	.	.	.	.	.	.	.
*	*	*	*Xtremolo	*	*Xtremolo	*	*	*	*	*	*	*	*	*
!	!	!	!LO:TX:a:t=P:problem=mixed beam	!	!	!	!	!	!	!	!	!	!	!
8B-\L	.	.	8b-/L	.	16b-\LL	.	8B-\	-stram	-stram	8b-\	-stram	-stram	.	.
.	.	.	.	.	16bb-\J	.	.	.	.	.	.	.	.	.
8B-\	.	.	16bb-\L	.	8b-\J	.	8BB-/	qui	qui	8b-\	qui	qui	.	.
.	.	.	16b-/JJ	.	.	.	.	.	.	.	.	.	.	.
!	!	!	!LO:TX:a:t=P:problem=mixed beam	!	!	!	!	!	!	!	!	!	!	!
8B-\	.	.	8b-/L	.	16b-\LL	.	8BB-/	se-	se-	8b-\	se-	se-	.	.
.	.	.	.	.	16bb-\J	.	.	.	.	.	.	.	.	.
8B-\J	.	.	16bb-\L	.	8b-\J	.	16BB-/	-des-	-des-	16a\	-des	-des	.	.
.	.	.	16b-/JJ	.	.	.	16BB-/	-ad	-ad	16a\	ad	ad	.	.
=72	=72	=72	=72	=72	=72	=72	=72	=72	=72	=72	=72	=72	=72	=72
*tremolo	*	*	*	*	*	*	*	*	*	*	*	*	*	*
8F\L	.	.	8cc\L	.	16cc\LL	.	8.E-\	dex-	dex-	8.cc\	dex-	dex-	1ryy	1ryy
.	.	.	.	.	16bb-\J	.	.	.	.	.	.	.	.	.
8F\	.	.	16bb-\L	.	8cc\J	.	.	.	.	.	.	.	.	.
.	.	.	16cc\JJ	.	.	.	16E-\	-te-	-te-	16cc\	-te-	-te-	.	.
8F\	.	.	8cc\L	.	16cc\LL	.	4F\	-ram	-ram	4cc\	-ram	-ram	.	.
.	.	.	.	.	16bb-\J	.	.	.	.	.	.	.	.	.
8F\J	.	.	16bb-\L	.	8cc\J	.	.	.	.	.	.	.	.	.
.	.	.	16cc\JJ	.	.	.	.	.	.	.	.	.	.	.
8F\L	7	.	8cc\L	.	16cc\LL	.	2F\	Pa-	Pa-	2cc\	Pa-	Pa-	.	.
.	.	.	.	.	16ff\J	.	.	.	.	.	.	.	.	.
8F\	.	.	16ff\L	.	8cc\J	.	.	.	.	.	.	.	.	.
.	.	.	16cc\JJ	.	.	.	.	.	.	.	.	.	.	.
8F\	.	.	8cc\L	.	16cc\LL	.	.	.	.	.	.	.	.	.
.	.	.	.	.	16ff\J	.	.	.	.	.	.	.	.	.
8F\J	.	.	16ff\L	.	8cc\J	.	.	.	.	.	.	.	.	.
.	.	.	16cc\JJ	.	.	.	.	.	.	.	.	.	.	.
*Xtremolo	*	*	*	*	*	*	*	*	*	*	*	*	*	*
=73	=73	=73	=73	=73	=73	=73	=73	=73	=73	=73	=73	=73	=73	=73
8B-\L	.	.	16dd\LL|	.	16dd\LL|	.	4BB-/	-tris	-tris	4dd\	-tris	-tris	1ryy	1ryy
.	.	.	(16b-\	.	(16g\	.	.	.	.	.	.	.	.	.
8G\	.	.	16a\)	.	16f\)	.	.	.	.	.	.	.	.	.
.	.	.	16g\JJ	.	16e-\JJ	.	.	.	.	.	.	.	.	.
8G\	.	.	16dd\LL|	.	16dd\LL|	.	8G\	mi-	mi-	8dd\	mi-	mi-	.	.
.	.	.	(16b-\	.	(16g\	.	.	.	.	.	.	.	.	.
8G\J	.	.	16a\)	.	16f\)	.	8G\	-se-	-se-	8dd\	-se-	-se-	.	.
.	.	.	16g\JJ	.	16e-\JJ	.	.	.	.	.	.	.	.	.
!	!	!	!	!	!	!	!LO:LB:g=original	!	!	!	!	!	!	!
!	!	!	!	!	!	!	!LO:SIC:v:o=4F\	!	!	!	!	!	!	!
8F#X\L	-7	.	16ee-\LL|	.	16ee-\LL|	.	4F#\	-re-	-re-	4ee-X\	-re-	-re-	.	.
.	.	.	(16cc\	.	(16cc\	.	.	.	.	.	.	.	.	.
8F#\	.	.	16b-\)	.	16b-\)	.	.	.	.	.	.	.	.	.
.	.	.	16a\JJ	.	16a\JJ	.	.	.	.	.	.	.	.	.
!	!	!	!	!	!LO:LB:g=original	!	!LO:SIC:v:o=4F\	!	!	!	!	!	!	!
8F#\	.	.	16ee-\LL|	.	16ee-\LL|	.	4F#\	-re	-re	4ee-\	-re	-re	.	.
.	.	.	(16cc\	.	(16cc\	.	.	.	.	.	.	.	.	.
8F#\J	.	.	16b-\)	.	16b-\)	.	.	.	.	.	.	.	.	.
.	.	.	16a\JJ	.	16a\JJ	.	.	.	.	.	.	.	.	.
!	!	!	!	!	!	!	!	!	!	!LO:LB:g=original	!	!	!	!
=74	=74	=74	=74	=74	=74	=74	=74	=74	=74	=74	=74	=74	=74	=74
*tremolo	*	*	*	*	*	*	*	*	*	*	*	*	*	*
!	!	!	!	!	!LO:TX:a:t=P:problem=mixed beam	!	!	!	!	!	!	!	!	!
8D\L	.	.	16a/LL	.	16ff#X\LL	.	2D\	no-	no-	2ff#X\	no-	no-	1ryy	1ryy
.	.	.	16d/	.	16a/	.	.	.	.	.	.	.	.	.
8D\	.	.	16a/	.	16ff#\	.	.	.	.	.	.	.	.	.
.	.	.	16d/JJ	.	16a/JJ	.	.	.	.	.	.	.	.	.
!	!	!	!	!	!LO:TX:a:t=P:problem=mixed beam	!	!	!	!	!	!	!	!	!
8D\	.	.	16a/LL	.	16ff#\LL	.	.	.	.	.	.	.	.	.
.	.	.	16d/	.	16a/	.	.	.	.	.	.	.	.	.
8D\J	.	.	16a/	.	16ff#\	.	.	.	.	.	.	.	.	.
.	.	.	16d/JJ	.	16a/JJ	.	.	.	.	.	.	.	.	.
*Xtremolo	*	*	*	*	*	*	*	*	*	*	*	*	*	*
4G\	.	.	4gg 4bn 4d/	.	4gg 4bn 4d 4G/	.	4G\	-bis	-bis	4gg\	-bis	-bis	.	.
4r	.	.	4r	.	4r	.	4r	.	.	4r	.	.	.	.
!	!	!	!LO:LB:g=original	!	!	!	!	!	!	!	!	!	!	!
=75||	=75||	=75||	=75||	=75||	=75||	=75||	=75||	=75||	=75||	=75||	=75||	=75||	=75||	=75||
!!!OMD:
!!!OMD-mod: Allegro
*k[f#c#]	*	*	*k[f#c#]	*	*k[c#f#]	*	*k[f#c#]	*	*	*k[c#f#]	*	*	*k[f#c#]	*k[f#c#]
*	*	*	*	*	*mk[f#c#]	*	*	*	*	*mk[f#c#]	*	*	*	*
*M4/4	*	*	*M4/4	*	*M4/4	*	*M4/4	*	*	*M4/4	*	*	*M4/4	*M4/4
*met(c)	*	*	*met(c)	*	*met(c)	*	*met(c)	*	*	*met(c)	*	*	*met(c)	*met(c)
*mmet(c)	*	*	*mmet(c)	*	*mmet(c)	*	*mmet(c)	*	*	*mmet(c)	*	*	*mmet(c)	*mmet(c)
!	!	!	!	!	!LO:TX:a:t=P:problem=znaki cc# a#	!	!	!	!	!LO:TX:a:t=P:problem=znaki cc# f#	!	!	!	!
!LO:TX:b:i:t=Quoniam:mod=	!	!	!LO:TX:b:i:t=Quoniam:mod=	!	!LO:TX:b:i:t=Quoniam:mod=	!	!	!	!	!LO:TX:a:t=Solo:mod=	!	!	!LO:TX:b:i:t=Quoniam:mod=	!LO:TX:b:i:t=Quoniam:mod=
!LO:TX:a:i:t=Allo:mod=	!	!	!LO:TX:a:i:t=Allo:mod=	!	!LO:TX:a:t=Allo:mod=	!	!LO:TX:a:t=Allo:mod=	!	!	!LO:TX:a:t=Allo:mod=	!	!	!LO:TX:a:i:t=Allo:mod=	!LO:TX:a:t=Allo:mod=
8d\L	.	.	8dd\L	.	8dd\L	.	8d\	Quo-	Quo-	2r	.	.	2r	2r
16c#\L	.	.	16cc#\L	.	16cc#\L	.	16c#\LL	-ni-	-ni-	.	.	.	.	.
16B\JJ	.	.	16b\JJ	.	16b\JJ	.	16B\JJ	.	.	.	.	.	.	.
8A\L	.	.	8a/L	.	8a/L	.	8A\	-am	-am	.	.	.	.	.
8G\J	.	.	8g/J	.	8g/J	.	8G\	tu	tu	.	.	.	.	.
8F#\L	.	.	8f#/L	.	8f#/L	.	8F#\	so-	so-	4r	.	.	4r	4r
8D\J	.	.	8d/J	.	8d/J	.	8D\	-lus	-lus	.	.	.	.	.
4r	.	.	8r	.	8r	.	4r	.	.	8r	.	.	8r	8r
.	.	.	8dd\	.	8ff#\	.	.	.	.	8ff#\	Tu	Tu	8d\	8f#\
!LO:LB:g=original	!	!	!	!	!	!	!	!	!	!	!	!	!	!
=76	=76	=76	=76	=76	=76	=76	=76	=76	=76	=76	=76	=76	=76	=76
!	!	!	!	!	!	!LO:DY:b:rj	!	!	!	!	!	!	!	!
!	!	!	!	!	!	!LO:MO:mod=.	!	!	!	!	!	!	!	!
2r	.	.	8cc#\L	.	8ee\L	p	2r	.	.	8ee\	So-	so-	8G\L	8e\L
.	.	.	8dd\	.	8ff#\	.	.	.	.	8ff#\	-lus	-lus	8d\	8f#\
.	.	.	8ee\	.	8gg\	.	.	.	.	8gg\	So-	so-	8e\	8g\
.	.	.	8dd\J	.	8ff#\J	.	.	.	.	8ff#\	-lus	-lus	8d\J	8f#\J
!	!	!	!	!	!	!	!	!	!	!	!	!	!	!LO:SIC:v:o=8e\L
8r	.	.	8dd\L	.	8ff#\L	.	4r	.	.	8ff#\	San-	San-	8d\L	8f#\L
!	!	!	!	!	!	!	!	!	!	!	!	!	!	!LO:SIC:v:o=8d\J
8A\L	.	.	8cc#\J	.	8ee\J	.	.	.	.	8ee\	-ctus	-ctus	8A\J	8e\J
8B\	.	.	8r	.	8r	.	8r	.	.	8r	.	.	4r	4r
8c#\J	.	.	8cc#\	.	8ee\	.	8c#\	tu	tu	8ee\	tu	tu	.	.
=77	=77	=77	=77	=77	=77	=77	=77	=77	=77	=77	=77	=77	=77	=77
*	*	*	*	*	*	*	*	*	*	*	*	*	*2\right	*2\right
!LO:TX:a:t=P:problem=mixed beam	!	!	!	!	!	!	!	!	!	!	!	!	!	!
8d\L	.	.	8dd\	.	8ff#\	.	8d\	so-	so-	8ff#\	So-	so-	2d\	2f#\
!	!	!	!	!	!	!	!LO:SIC:o=(4B\	!	!	!	!	!	!	!
8D/J	.	.	4dd\	.	4dd\	.	4B	-lus	-lus	4dd\	-lus	-lus	.	.
8r	.	.	.	.	.	.	.	.	.	.	.	.	.	.
!LO:TX:a:t=P:problem=mixed beam	!	!	!	!	!	!LO:SIC:o==78	!	!	!	!	!	!	!	!
8B\L	.	.	16cc#\LL	.	16cc#\LL	.	16A\LL)	.	Do-	16cc#\LL	.	Do-	.	.
.	.	.	16b\JJ	.	16b\JJ	.	16B\JJ	.	.	16b\JJ	.	.	.	.
8c#\	.	.	8ee\	.	8ee\	.	8c#\	Do-	-mi-	8ee\	Do-	-mi-	2A/	2e\
8C#/J	.	.	4cc#\	.	4cc#\	.	4A\	-mi-	-nus	4cc#\	-mi-	-nus	.	.
8r	.	.	.	.	.	.	.	.	.	.	.	.	.	.
!	!	!	!	!	!	!	!LO:SIC:o=(16G#X\LL	!	!	!	!	!	!	!
8A\	.	.	16b\LL	.	16b\LL	.	16G#LL	.	tu	16b\LL	-nus	tu	.	.
!	!	!	!	!	!	!	!LO:SIC:o=16A\JJ)	!	!	!	!	!	!	!
.	.	.	16a\JJ	.	16a\JJ	.	16AJJ	.	.	16a\JJ	.	.	.	.
=78	=78	=78	=78	=78	=78	16A	=78	=78	=78	=78	=78	=78	=78	=78
!	!	!	!	!	!	!	!	!	!	!	!	!	!	!LO:TX:a:t=8:mod=
8B\L	.	.	8.b/L	.	8.dd\L	.	8B\	-nus	so-	8dd\	So-	so-	00r	00r
8E\	7	.	.	.	.	.	8B\	al-	-lus	8dd\	-lus	-lus	.	.
.	.	.	16b/Jk	.	16dd\Jk	.	.	.	.	.	.	.	.	.
8E\	.	.	8.a/L	.	4a\	.	8A\	-tiſ-	Al-	8cc#\	al-	Al-	.	.
8E\J	.	.	.	.	.	.	8G#X\	-si-	-tis-	8b\	-tiſ-	-tis-	.	.
.	.	.	16g#X/Jk	.	.	.	.	.	.	.	.	.	.	.
!	!	!	!	!	!LO:LB:g=original	!	!	!	!	!LO:PB:g=original	!	!	!	!
4A\	.	.	16a/LL	.	16cc#\LL	.	8A\	-mus	-si-	16cc#\LL	-si-	-si-	.	.
.	.	.	16cc#/	.	16ee\	.	.	.	.	16ee\JJ	.	.	.	.
.	.	.	16dd/	.	16ff#\	.	8B\	Je-	-mus	16ff#\LL	.	-mus	.	.
.	.	.	16b/JJ	.	16gg#X\JJ	.	.	.	.	16gg#X\JJ	.	.	.	.
!LO:SIC:v:o=4D\	!	!	!	!	!	!	!	!	!	!	!	!	!	!
4AA\	.	.	8cc#/L	.	8aa\L	.	8c#\	-su	Je-	8aa\	-mus	Je-	.	.
.	.	.	8b/J	.	8dd\J	.	8B\	.	-su	8dd\	Je-	-su	.	.
!	!	!	!	!	!	!	!LO:LB:g=original	!	!	!	!	!	!	!
=79	=79	=79	=79	=79	=79	=79	=79	=79	=79	=79	=79	=79	=79	=79
!	!	!	!	!	!	!	!LO:SIC:v:o=8G\	!	!	!	!	!	!	!
4E\	9 4	.	4a/	.	8cc#\L	.	8A\	Je-	Je-	8cc#\L	-su	Je-	.	.
.	.	.	.	.	16b\L	.	8D\	-su	-su	16b\L	.	-su	.	.
.	.	.	.	.	16a\JJ	.	.	.	.	16a\JJ	.	.	.	.
!	!	!	!	!	!LO:TX:a:t=P:problem=mixed beam	!	!	!	!	!	!	!	!	!
4EE/	x 3	.	4g#X/	.	8ee\L	.	4E\	Chris-	Chri-	4b\	chri-	Chri-	.	.
.	.	.	.	.	8e/J	.	.	.	.	.	.	.	.	.
8AA/L	.	.	8a/L	.	8a\L	.	4AA/	-te	-ste	4a\	-ste	-ste	.	.
16BB/L	.	.	16b/L	.	16b\L	.	.	.	.	.	.	.	.	.
16C#/JJ	.	.	16cc#/JJ	.	16cc#\JJ	.	.	.	.	.	.	.	.	.
16D/LL	.	.	16dd\LL	.	16dd\LL	.	4r	.	.	4r	.	.	.	.
16E/	.	.	16ee\	.	16ee\	.	.	.	.	.	.	.	.	.
16F#/	.	.	16ff#\	.	16ff#\	.	.	.	.	.	.	.	.	.
16G#X/JJ	.	.	16gg#X\JJ	.	16gg#X\JJ	.	.	.	.	.	.	.	.	.
=80	=80	=80	=80	=80	=80	=80	=80	=80	=80	=80	=80	=80	=80	=80
!LO:TX:a:t=P:problem=mixed beam	!	!	!LO:TX:a:t=P:problem=mixed beam	!	!LO:TX:a:t=P:problem=mixed beam	!	!LO:TX:a:t=3:mod=	!	!	!LO:TX:a:t=3:mod=	!	!	!	!
8A\L	.	.	8aa\L	.	8aa\L	.	0r	.	.	0r	.	.	.	.
8AA/J	.	.	8a/J	.	8a/J	.	.	.	.	.	.	.	.	.
4r	.	.	8r	.	8r	.	.	.	.	.	.	.	.	.
.	.	.	8cc#\	.	8aa\	.	.	.	.	.	.	.	.	.
!	!	!	!LO:LB:g=original	!	!	!	!	!	!	!	!	!	!	!
2r	.	.	8b\L	.	8gg#X\L	.	.	.	.	.	.	.	.	.
.	.	.	8cc#\	.	8aa\	.	.	.	.	.	.	.	.	.
.	.	.	8dd\	.	8bb\	.	.	.	.	.	.	.	.	.
.	.	.	8cc#\J	.	8aa\J	.	.	.	.	.	.	.	.	.
=81	=81	=81	=81	=81	=81	=81	=81	=81	=81	=81	=81	=81	=81	=81
8r	.	.	8cc#\L	.	8aa\L	.	.	.	.	.	.	.	.	.
16E\LL	.	.	8b\J	.	8gg#X\J	.	.	.	.	.	.	.	.	.
16D\JJ	.	.	.	.	.	.	.	.	.	.	.	.	.	.
8C#/L	.	.	8r	.	8r	.	.	.	.	.	.	.	.	.
!	!	!	!	!LO:MO:mod=.	!	!	!	!	!	!	!	!	!	!
8AA/J	.	.	8ee\	f	8ee\	.	.	.	.	.	.	.	.	.
8D\L	6 3	.	16ff#\LL	.	16ff#\LL	.	.	.	.	.	.	.	.	.
.	.	.	16dd\	.	16dd\	.	.	.	.	.	.	.	.	.
8D\	.	.	16cc#\	.	16cc#\	.	.	.	.	.	.	.	.	.
.	.	.	16dd\JJ	.	16dd\JJ	.	.	.	.	.	.	.	.	.
8D\	.	.	16ff#\LL	.	16ff#\LL	.	.	.	.	.	.	.	.	.
.	.	.	16bb\	.	16bb\	.	.	.	.	.	.	.	.	.
8D\J	6	.	16aa\	.	16aa\	.	.	.	.	.	.	.	.	.
.	.	.	16bb\JJ	.	16bb\JJ	.	.	.	.	.	.	.	.	.
=82	=82	=82	=82	=82	=82	=82	=82	=82	=82	=82	=82	=82	=82	=82
8E\L	5 3	.	16gg#X\LL	.	16gg#X\LL	.	1r	.	.	1r	.	.	00r	00r
.	.	.	16ee\	.	16ee\	.	.	.	.	.	.	.	.	.
8D\	.	.	16ff#\	.	16ff#\	.	.	.	.	.	.	.	.	.
.	.	.	16gg#\JJ	.	16gg#\JJ	.	.	.	.	.	.	.	.	.
8C#\	.	.	8aa\L	.	8aa\L	.	.	.	.	.	.	.	.	.
8D\J	.	.	8dd\J	.	8dd\J	.	.	.	.	.	.	.	.	.
!	!	!	!	!	!LO:SIC:o=8qqdd/	!	!	!	!	!	!	!	!	!
.	.	.	.	.	16qqdd	.	.	.	.	.	.	.	.	.
4E\	6 4	.	8cc#/L	.	8cc#\L	.	.	.	.	.	.	.	.	.
.	.	.	8a/J	.	16b\L	.	.	.	.	.	.	.	.	.
.	.	.	.	.	16a\JJ	.	.	.	.	.	.	.	.	.
!	!	!	!	!	!LO:TX:a:t=P:problem=mixed beam	!	!	!	!	!	!	!	!	!
4EE/	x 3	.	4g#X/	.	8ee\L	.	.	.	.	.	.	.	.	.
.	.	.	.	.	8e/J	.	.	.	.	.	.	.	.	.
=83	=83	=83	=83	=83	=83	=83	=83	=83	=83	=83	=83	=83	=83	=83
8A\L|	.	.	8aa\L	.	8aa\L	.	8A\	Quo-	Quo-	8aa\	Quo-	Quo-	.	.
!	!	!	!	!	!LO:SIC:v:o=16gg\L	!	!	!	!	!	!	!	!	!
16G#X\L|	.	.	16gg#X\L	.	16gg#\L	.	16G#X\LL	-ni-	-ni-	16gg#X\LL	-ni-	-ni-	.	.
16F#\JJ|	.	.	16ff#\JJ	.	16ff#\JJ	.	16F#\JJ	.	.	16ff#\JJ	.	.	.	.
8E\L|	.	.	8ee\L	.	8ee\L	.	8E\	-am	-am	8ee\	-am	-am	.	.
8D\J|	.	.	8dd\J	.	8dd\J	.	8D\	tu	tu	8dd\	tu	tu	.	.
!	!	!	!	!	!LO:LB:g=original	!	!	!	!	!	!	!	!	!
8C#/L	.	.	8cc#\L	.	8cc#\L	.	8C#/	so-	so-	8cc#\	so-	so-	.	.
16AA/L	.	.	8a\J	.	8a\J	.	8AA/	-lus	-lus	8a\	-lus	-lus	.	.
16BB/JJ	.	.	.	.	.	.	.	.	.	.	.	.	.	.
8C#/L	.	.	8r	.	8r	.	8r	.	.	8r	.	.	.	.
8AA/J	.	.	8a/	.	8cc#\	.	8A\	tu	tu	8cc#\	tu	tu	.	.
=84	=84	=84	=84	=84	=84	=84	=84	=84	=84	=84	=84	=84	=84	=84
*tremolo	*	*	*	*	*	*	*	*	*	*	*	*	*	*
!	!	!	!LO:SIC:v:o=4g/	!	!	!	!LO:SIC:v:o=4G\	!	!	!	!	!	!	!
8E\L	7	.	4g#/	.	4b\	.	4G#\	so-	so-	4b\	So-	so-	.	.
8E\	.	.	.	.	.	.	.	.	.	.	.	.	.	.
8E\	.	.	8a/L	.	8cc#\L	.	8A\L	-lus	-lus	8cc#\L	-lus	-lus	.	.
8E\J	.	.	8b/J	.	8dd\J	.	8B\J	.	.	8dd\J	.	.	.	.
*Xtremolo	*	*	*	*	*	*	*	*	*	*	*	*	*	*
8A\L	.	.	8a/L	.	16cc#\LL	.	8A\	San-	San-	8cc#\	San-	San-	.	.
.	.	.	.	.	16a\	.	.	.	.	.	.	.	.	.
8E\	.	.	16cc#/L	.	16cc#\	.	8c#\	-ctus	-ctus	8ee\	-ctus	-ctus	.	.
.	.	.	16ee/JJ	.	16ee\JJ	.	.	.	.	.	.	.	.	.
!	!	!	!LO:TX:a:t=P:problem=mixed beam	!	!	!	!	!	!	!	!	!	!	!
8C#\	.	.	8aa\L	.	8aa\L	.	8r	.	.	8r	.	.	.	.
8AA\J	.	.	8a/J	.	8cc#\J	.	8A\	tu	tu	8cc#\	tu	tu	.	.
=85	=85	=85	=85	=85	=85	=85	=85	=85	=85	=85	=85	=85	=85	=85
!	!	!	!LO:SIC:v:o=4g/	!	!	!	!LO:SIC:v:o=8G\	!	!	!LO:SIC:o=(4b\	!	!	!	!
8E\L	7	.	4g#/	.	4b\	.	8G#\	Sol-	so-	4b	so-	so-	.	.
!	!	!	!	!	!	!	!LO:SIC:v:o=8G\	!	!	!	!	!	!	!
8E\	.	.	.	.	.	.	8G#\	-lus	-lus	.	.	.	.	.
8E\	.	.	8a/L	.	8cc#\L	.	8A\	Do-	Do-	8cc#\	-lus	.	.	.
!	!	!	!	!	!	!	!	!	!	!LO:SIC:o=8dd\)	!	!	!	!
8E\J	.	.	8b/J	.	8dd\J	.	8B\	-mi-	-mi-	8dd	.	-lus	.	.
!LO:LB:g=original	!	!	!	!	!	!	!	!	!	!LO:LB:g=original	!	!	!	!
8A\L	.	.	4a/	.	16cc#\LL	.	4A\	-nus	-nus	16cc#\	Do-	Do-	.	.
.	.	.	.	.	16b\J	.	.	.	.	16b\	-mi-	-mi-	.	.
8E\	.	.	.	.	8a\J	.	.	.	.	8a\	-nus	-nus	.	.
8C#\	.	.	8r	.	8r	.	8r	.	.	8r	.	.	.	.
8AA\J	.	.	8a/	.	8a/	.	8A\	tu	tu	8a\	tu	tu	.	.
=86	=86	=86	=86	=86	=86	=86	=86	=86	=86	=86	=86	=86	=86	=86
*tremolo	*	*	*	*	*	*	*	*	*	*	*	*	*	*
8AA/L	.	.	16ee\LL	.	16gg\LL	.	4c#\	so-	so-	4ee\	So-	so-	4e\	4g\
.	.	.	16ee\	.	16gg\	.	.	.	.	.	.	.	.	.
8AA/	.	.	16cc#\	.	16ee\	.	.	.	.	.	.	.	.	.
.	.	.	16cc#\JJ	.	16ee\JJ	.	.	.	.	.	.	.	.	.
!	!	!	!LO:LB:g=original	!	!	!	!	!	!	!	!	!	!	!
8AA/	.	.	4a/	.	16cc#\LL	.	8c#\	-lus	-lus	8ee\	-lus	-lus	4A/	4e\
.	.	.	.	.	16cc#\	.	.	.	.	.	.	.	.	.
8AA/J	.	.	.	.	16a\	.	8c#\	al-	Al-	8ee\	Al-	Al-	.	.
.	.	.	.	.	16a\JJ	.	.	.	.	.	.	.	.	.
8AA/L	6 4	.	16ff#\LL	.	16aa\LL	.	4d\	-tiſ-	-tis-	4ff#\	-tiſ-	-tis-	4f#\	4a\
.	.	.	16ff#\	.	16aa\	.	.	.	.	.	.	.	.	.
8AA/	.	.	16dd\	.	16ff#\	.	.	.	.	.	.	.	.	.
.	.	.	16dd\JJ	.	16ff#\JJ	.	.	.	.	.	.	.	.	.
8AA/	.	.	4a/	.	16dd\LL	.	4d\	-si-	-si-	4ff#\	-si-	-si-	4d\	4f#\
.	.	.	.	.	16dd\	.	.	.	.	.	.	.	.	.
8AA/J	.	.	.	.	16a\	.	.	.	.	.	.	.	.	.
.	.	.	.	.	16a\JJ	.	.	.	.	.	.	.	.	.
!	!	!	!	!	!	!	!	!	!	!	!	!	!LO:LB:g=original	!
=87	=87	=87	=87	=87	=87	=87	=87	=87	=87	=87	=87	=87	=87	=87
8AA/L	7 5	.	16gg\LL	.	16gg\LL	.	4e\	-mus	-mus	4gg\	-mus	-mus	4e\	4g\
.	.	.	16gg\	.	16gg\	.	.	.	.	.	.	.	.	.
8AA/	.	.	16ee\	.	16ee\	.	.	.	.	.	.	.	.	.
.	.	.	16ee\JJ	.	16ee\JJ	.	.	.	.	.	.	.	.	.
8AA/	.	.	4a/	.	16cc#\LL	.	8r	.	.	8r	.	.	4A/	4e\
.	.	.	.	.	16cc#\	.	.	.	.	.	.	.	.	.
8AA/J	.	.	.	.	16a\	.	8A\	Je-	Je-	8ee\	Je-	Je-	.	.
.	.	.	.	.	16a\JJ	.	.	.	.	.	.	.	.	.
*Xtremolo	*	*	*	*	*	*	*	*	*	*	*	*	*	*
!	!	!	!	!	!	!	!LO:LB:g=original	!	!	!	!	!	!	!LO:LB:g=original
!	!	!	!	!	!	!	!LO:SIC:o=8d\L	!	!	!	!	!	!	!
8D\L	.	.	4dd\	.	8ff#\L	.	8d	-su	.	8ff#\	.	.	4d\	8f#\L
!	!	!	!	!	!	!	!LO:SIC:o=8F#\J	!	!	!	!	!	!	!
8F#\	.	.	.	.	8dd\J	.	8F#	.	-su	8cc#\	-su	-su	.	8d\J
8G\	.	.	4cc#\	.	4ee\	.	8G\L	Chri-	Chri-	4ee\	chris-	Chri-	4A/	4e\
8A\J	.	.	.	.	.	.	8A\J	.	.	.	.	.	.	.
=88	=88	=88	=88	=88	=88	=88	=88	=88	=88	=88	=88	=88	=88	=88
8d\L|	.	.	8dd\L	.	8dd\L	.	4D\	-ste	-ste	4dd\	-te	-ste	4F#/	4d\
16c#\L|	.	.	16cc#\L	.	16cc#\L	.	.	.	.	.	.	.	.	.
16B\JJ|	.	.	16b\JJ	.	16b\JJ	.	.	.	.	.	.	.	.	.
8A\L|	.	.	8a/L	.	8a/L	.	4r	.	.	4r	.	.	4r	4r
8G\J|	.	.	8g/J	.	8g/J	.	.	.	.	.	.	.	.	.
!	!	!	!	!	!LO:LB:g=original	!	!	!	!	!	!	!	!	!
8F#\L|	.	.	8f#/L	.	8f#/L	.	2r	.	.	2r	.	.	4r	4r
8D\J|	.	.	8d/J	.	8d/J	.	.	.	.	.	.	.	.	.
4r	.	.	8r	.	8r	.	.	.	.	.	.	.	8r	8r
.	.	.	8dd\	.	8ff#\	.	.	.	.	.	.	.	8d\	8f#\
=89	=89	=89	=89	=89	=89	=89	=89	=89	=89	=89	=89	=89	=89	=89
2r	.	.	8cc#\	.	8ee\	.	0r	.	.	0r	.	.	8A/	8d\
.	.	.	4cc#\	.	4ee\	.	.	.	.	.	.	.	4A/	4e\
.	.	.	24dd\LL	.	8ff#\	.	.	.	.	.	.	.	8d\	8f#\
.	.	.	24cc#\	.	.	.	.	.	.	.	.	.	.	.
.	.	.	24dd\JJ	.	.	.	.	.	.	.	.	.	.	.
4r	.	.	4ee\	.	4gg\	.	.	.	.	.	.	.	4e\	4g\
8r	.	.	16r	.	16r	.	.	.	.	.	.	.	4r	4r
.	.	.	16ee\LL	.	16gg\LL	.	.	.	.	.	.	.	.	.
8A\	.	.	16dd\	.	16ff#\	.	.	.	.	.	.	.	.	.
.	.	.	16cc#\JJ	.	16ee\JJ	.	.	.	.	.	.	.	.	.
=90	=90	=90	=90	=90	=90	=90	=90	=90	=90	=90	=90	=90	=90	=90
4d\	.	.	4dd\	.	8ff#\L	.	.	.	.	.	.	.	4d\	4f#\
.	.	.	.	.	16ee\L	.	.	.	.	.	.	.	.	.
.	.	.	.	.	16dd\JJ	.	.	.	.	.	.	.	.	.
4A\	.	.	4cc#\	.	4ee\	.	.	.	.	.	.	.	4A/	4e\
!	!	!	!	!	!	!	!	!	!	!	!	!	!	!LO:TX:a:t=P:problem=mixed beam
8D\L	.	.	8dd\L	.	8dd\L	.	.	.	.	.	.	.	8d/L	8d\L
!LO:SIC:v:o=8B\	!	!	!	!	!LO:SIC:v:o=8b\	!	!	!	!	!	!	!	!	!
8A\	.	.	8a\	.	8a\	.	.	.	.	.	.	.	16A/L	16A/L
.	.	.	.	.	.	.	.	.	.	.	.	.	16A/JJ	16A/JJ
!	!	!	!	!	!	!	!	!	!	!	!	!	!LO:SIC:v:o=8F#/L	!LO:SIC:v:o=8F#/L
8G\	.	.	8g\	.	8g\	.	.	.	.	.	.	.	8G/L	8G/L
8A\J	.	.	8a\J	.	8a\J	.	.	.	.	.	.	.	8F#/J	8F#/J
=91	=91	=91	=91	=91	=91	=91	=91	=91	=91	=91	=91	=91	=91	=91
!	!	!	!	!	!	!	!LO:TX:a:t=P:problem=brak taktu	!	!	!	!	!	!	!
4D\	.	.	4d/	.	4d/	.	1ryy	.	.	1r	.	.	4D/	4D/
4r	.	.	4r	.	4r	.	.	.	.	.	.	.	4r	4r
2r	.	.	2r	.	2rg	.	.	.	.	.	.	.	2r	2rg
!	!	!	!LO:LB:g=original	!	!	!	!	!	!	!	!	!	!	!
=92||	=92||	=92||	=92||	=92||	=92||	=92||	=92||	=92||	=92||	=92||	=92||	=92||	=92||	=92||
!!!OMD:
!!!OMD-mod: Adagio
*k[f#c#]	*	*	*k[c#f#]	*	*k[f#c#]	*	*k[f#c#]	*	*	*k[c#f#]	*	*	*k[f#c#]	*k[f#c#]
*	*	*	*mk[f#c#]	*	*	*	*	*	*	*mk[f#c#]	*	*	*	*
*M4/4	*	*	*M4/4	*	*M4/4	*	*M4/4	*	*	*M4/4	*	*	*M4/4	*M4/4
*met(c)	*	*	*met(c)	*	*met(c)	*	*met(c)	*	*	*met(c)	*	*	*met(c)	*met(c)
*mmet(c)	*	*	*mmet(c)	*	*mmet(c)	*	*mmet(c)	*	*	*mmet(c)	*	*	*mmet(c)	*mmet(c)
!	!	!	!LO:TX:a:t=P:problem=znaki cc# f#	!	!LO:TX:a:t=P:problem=znaki cc# f# jeden pod drugim	!	!	!	!	!LO:TX:a:t=P:problem=znaki cc# f#	!	!	!	!
!LO:TX:b:i:t=Cum Sancto:mod=	!	!	!LO:TX:b:i:t=Cum Sancto:mod=	!	!LO:TX:b:i:t=Cum Sancto:mod=	!	!	!	!	!	!	!	!LO:TX:b:i:t=Cum Sancto:mod=	!LO:TX:b:i:t=Cum Sancto:mod=
!	!	!	!LO:TX:a:t=Ada:mod=	!	!LO:TX:a:t=Ada:mod=	!	!LO:TX:a:t=Ada:mod=	!	!	!LO:TX:a:t=Allo:mod=	!	!	!LO:TX:a:t=Ada:mod=	!LO:TX:a:t=Ada:mod=
8D\L	.	.	8dd\L	.	8ff#\L	.	2D\	Cum	Cum	2ff#\	Cum	Cum	4d\	4f#\
8D\	.	.	8dd\	.	8ff#\	.	.	.	.	.	.	.	.	.
8D\	.	.	8dd\	.	8ff#\	.	.	.	.	.	.	.	4d\	4f#\
8D\J	.	.	8dd\J	.	8ff#\J	.	.	.	.	.	.	.	.	.
!	!	!	!LO:MO:null:mod=*tremolo	!	!	!	!	!	!	!	!	!	!	!
*tremolo	*	*	*null	*	*tremolo	*	*	*	*	*	*	*	*	*
*	*	*	*	*	*2\right	*	*	*	*	*	*	*	*	*
8D\L	.	.	8dd\L	.	8ff#\L	.	4D\	San-	San-	4ff#\	San-	San-	4d\	4f#\
8D\	.	.	8dd\	.	8ff#\	.	.	.	.	.	.	.	.	.
8D\	.	.	8dd\	.	8ff#\	.	4D\	-cto	-cto	4ff#\	-cto	-cto	4r	4r
8D\J	.	.	8dd\J	.	8ff#\J	.	.	.	.	.	.	.	.	.
=93	=93	=93	=93	=93	=93	=93	=93	=93	=93	=93	=93	=93	=93	=93
8A\L	.	.	8cc#\L	.	8ee\L	.	4.A\	Spi-	Spi-	4.ee\	Spi-	Spi-	4A/	4e\
8A\	.	.	8cc#\	.	8ee\	.	.	.	.	.	.	.	.	.
8A\	.	.	8cc#\	.	8ee\	.	.	.	.	.	.	.	8A/L	8e\L
8A\J	.	.	8cc#\J	.	8ee\J	.	8A\	-ri-	-ri-	8ee\	-ri-	-ri-	8A/J	8e\J
!	!	!	!LO:MO:null:mod=*Xtremolo	!	!	!	!	!	!	!	!	!	!	!
*Xtremolo	*	*	*null	*	*Xtremolo	*	*	*	*	*	*	*	*	*
*	*	*	*2\right	*	*	*	*	*	*	*	*	*	*	*
!	!	!	!	!	!	!	!	!	!	!LO:LB:g=original	!	!	!	!
2A\	.	.	2cc#\	.	2ee\	.	2A\	-tu	-tu	2ee\	-tu	-tu	2A/	2e\
!	!	!	!	!	!	!	!	!	!	!	!	!	!LO:LB:g=original	!LO:LB:g=original
=94||	=94||	=94||	=94||	=94||	=94||	=94||	=94||	=94||	=94||	=94||	=94||	=94||	=94||	=94||
!!!OMD:
!!!OMD-mod: Allegro
*M2/4	*	*	*M2/4	*	*M2/4	*	*M2/4	*	*	*M2/4	*	*	*M2/4	*M2/4
!	!	!	!	!	!	!	!LO:MO:null:mod=*null	!	!	!	!	!	!	!
*	*	*	*	*	*	*	*k[c#f#]	*	*	*	*	*	*	*
!LO:TX:b:i:t=in gloria:mod=	!	!	!LO:TX:b:i:t=In gloria:mod=	!	!LO:TX:b:i:t=In gloria:mod=	!	!	!	!	!	!	!	!LO:TX:b:i:t=In gloria:mod=	!LO:TX:b:i:t=In Gloria:mod=
!	!	!	!LO:TX:a:t=allo:mod=	!	!LO:TX:a:i:t=Allo:mod=	!	!LO:TX:a:t=Allo:mod=	!	!	!LO:TX:a:t=Allo:mod=	!	!	!LO:TX:a:t=Allo:mod=	!
8d\	.	.	8dd\	.	8ff#\	.	8d\	In	In	8ff#\	in	In	8r	8r
=95	=95	=95	=95	=95	=95	=95	=95	=95	=95	=95	=95	=95	=95	=95
!LO:TX:a:t=P:problem=mixed beam	!	!	!	!	!LO:MO:mod=8.eeL	!	!	!	!	!	!	!	!	!
8A\L	.	.	8.cc#\L	.	8ee\L	.	4A\	glo-	glo-	4ee\	glo-	glo-	2r	2r
!	!	!	!	!	!LO:MO:mod=.	!	!	!	!	!	!	!	!	!
8AA/	.	.	.	.	8ee\	.	.	.	.	.	.	.	.	.
!	!	!	!	!	!LO:MO:null:mod=16eeJk	!	!	!	!	!	!	!	!	!
.	.	.	16cc#\Jk	.	.	.	.	.	.	.	.	.	.	.
!	!	!	!	!	!LO:MO:mod=8.ff#L	!	!	!	!	!	!	!	!	!
8d\	.	.	8.dd\L	.	8ff#\	.	4d\	-ri-	-ri-	4ff#\	-ri-	-ri-	.	.
!	!	!	!	!	!LO:MO:mod=.	!	!	!	!	!	!	!	!	!
8D/J	.	.	.	.	8ff#\J	.	.	.	.	.	.	.	.	.
!	!	!	!	!	!LO:MO:null:mod=16ff#Jk	!	!	!	!	!	!	!	!	!
.	.	.	16dd\Jk	.	.	.	.	.	.	.	.	.	.	.
!	!	!	!	!	!LO:LB:g=original	!	!	!	!	!	!	!	!	!
=96	=96	=96	=96	=96	=96	=96	=96	=96	=96	=96	=96	=96	=96	=96
8A\L	.	.	4cc#\	.	4ee\	.	4A\	-a	-a	4ee\	-a	-a	8A\L	8e\L
!LO:SIC:v:o=8B\	!	!	!	!	!	!	!	!	!	!	!	!	!	!
8AA\	.	.	.	.	.	.	.	.	.	.	.	.	8A\	8e\
!LO:SIC:v:o=8c#\	!	!	!	!	!	!	!	!	!	!	!	!	!	!
8d\	.	.	8r	.	8r	.	8r	.	.	8r	.	.	8d\	8f#\
!LO:SIC:v:o=8d\J	!	!	!	!	!	!	!	!	!	!	!	!	!	!
8D\J	.	.	8dd\	.	8ff#\	.	8d\	in	in	8ff#\	in	in	8d\J	8f#\J
=97	=97	=97	=97	=97	=97	=97	=97	=97	=97	=97	=97	=97	=97	=97
!LO:TX:a:t=P:problem=mixed beam	!	!	!	!	!	!	!	!	!	!	!	!	!	!
8A\L	.	.	8.cc#\L	.	8.ee\L	.	4A\	glo-	glo-	4ee\	glo-	glo-	4A/	4e\
8AA/	.	.	.	.	.	.	.	.	.	.	.	.	.	.
!	!	!	!	!	!LO:SIC:o=16ee\	!	!	!	!	!	!	!	!	!
.	.	.	16cc#\Jk	.	16eeJk	.	.	.	.	.	.	.	.	.
!	!	!	!	!	!LO:SIC:o=8.ff#\	!	!	!	!	!	!	!	!	!
8d\	.	.	8.dd\L	.	8.ff#L	.	4d\	-ri-	-ri-	4ff#\	-ri-	-ri-	4r	4r
8D/J	.	.	.	.	.	.	.	.	.	.	.	.	.	.
.	.	.	16dd\Jk	.	16ff#\Jk	.	.	.	.	.	.	.	.	.
=98	=98	=98	=98	=98	=98	=98	=98	=98	=98	=98	=98	=98	=98	=98
8A\L	.	.	4cc#\	.	4ee\	.	4A\	-a	-a	4ee\	-a	-a	8A/L	8e\L
8E\J	.	.	.	.	.	.	.	.	.	.	.	.	8A/	8e\
!LO:SIC:v:o=8C#/L	!	!	!	!	!	!	!	!	!	!	!	!	!	!
8D/L	.	.	8r	.	8r	.	8r	.	.	8r	.	.	8d/	8f#\
8AA/J	.	.	8a/	.	8a/	.	8A\	in	in	8a\	in	in	8d/J	8f#\J
!LO:LB:g=original	!	!	!	!	!	!	!	!	!	!	!	!	!	!
=99	=99	=99	=99	=99	=99	=99	=99	=99	=99	=99	=99	=99	=99	=99
*tremolo	*	*	*	*	*	*	*	*	*	*	*	*	*	*
!	!	!	!	!	!LO:N:vis=16.	!	!	!	!	!	!	!	!	!
8AA/L	7	.	16ee\LL	.	16gg\LL	.	4A\	glo-	glo-	4ee\	glo-	glo-	4e\	4g\
.	.	.	16ee\	.	16gg\	.	.	.	.	.	.	.	.	.
8AA/	.	.	16ee\	.	16ee\	.	.	.	.	.	.	.	.	.
.	.	.	16ee\JJ	.	16ee\JJ	.	.	.	.	.	.	.	.	.
*	*	*	*tremolo	*	*	*	*	*	*	*	*	*	*	*
8AA/	.	.	16ee\LL	.	16cc#\LL	.	8A\	-ri-	-ri-	8ee\	-ri-	-ri-	4G/	4e\
.	.	.	16ee\	.	16cc#\	.	.	.	.	.	.	.	.	.
8AA/J	.	.	16ee\	.	16a\	.	8A\	-a	-a	8ee\	-a	-a	.	.
.	.	.	16ee\JJ	.	16a\JJ	.	.	.	.	.	.	.	.	.
!	!	!	!	!	!	!	!LO:LB:g=original	!	!	!	!	!	!	!
=100	=100	=100	=100	=100	=100	=100	=100	=100	=100	=100	=100	=100	=100	=100
!	!	!	!	!	!	!	!	!	!	!	!	!LO:MO:null:mod=*null	!	!
*	*	*	*	*	*	*	*	*	*	*	*ij	*ij	*	*
8AA/L	6 4	.	16ff#\LL	.	16aa\LL	.	4A\	glo-	glo-	4ff#\	glo-	glo-	4f#\	4a\
.	.	.	16ff#\	.	16aa\	.	.	.	.	.	.	.	.	.
8AA/	.	.	16ff#\	.	16ff#\	.	.	.	.	.	.	.	.	.
.	.	.	16ff#\	.	16ff#\JJ	.	.	.	.	.	.	.	.	.
8AA/	.	.	16ff#\	.	16dd\LL	.	8A\	-ri-	-ri-	8ff#\	-ri-	-ri-	4d\	4f#\
.	.	.	16ff#\	.	16dd\	.	.	.	.	.	.	.	.	.
8AA/J	.	.	16ff#\	.	16a\	.	8A\	-a	-a	8ff#\	-a	-a	.	.
*	*	*	*	*	*	*	*	*	*	*	*Xij	*Xij	*	*
.	.	.	16ff#\JJ	.	16a\JJ	.	.	.	.	.	.	.	.	.
!	!	!	!LO:LB:g=original	!	!	!	!	!	!	!	!	!	!	!
=101	=101	=101	=101	=101	=101	=101	=101	=101	=101	=101	=101	=101	=101	=101
8AA/L	7	.	16ee\LL	.	16gg\LL	.	4A\	De-	De-	4gg\	De-	De-	4e\	4g\
.	.	.	16ee\	.	16gg\	.	.	.	.	.	.	.	.	.
8AA/	.	.	16ee\	.	16ee\	.	.	.	.	.	.	.	.	.
.	.	.	16ee\	.	16ee\JJ	.	.	.	.	.	.	.	.	.
8AA/	.	.	16ee\	.	16cc#\LL	.	4A\	-i	-i	4gg\	-i	-i	4G/	4e\
.	.	.	16ee\	.	16cc#\	.	.	.	.	.	.	.	.	.
8AA/J	.	.	16ee\	.	16a\	.	.	.	.	.	.	.	.	.
.	.	.	16ee\JJ	.	16a\JJ	.	.	.	.	.	.	.	.	.
*Xtremolo	*	*	*Xtremolo	*	*	*	*	*	*	*	*	*	*	*
=102	=102	=102	=102	=102	=102	=102	=102	=102	=102	=102	=102	=102	=102	=102
8D\L	.	.	4dd\	.	8ff#\L	.	8d\	pa-	Pa-	8ff#\	Pa-	Pa-	4d\	4f#\
8F#\	.	.	.	.	8dd\	.	8F#\	-tris	-tris.	8dd\	-tris	-tris.	.	.
8G\	.	.	4cc#\	.	8ee\	.	8G\L	A-	A-	4ee\	a-	A-	4G/	4e\
8A\J	.	.	.	.	8cc#\J	.	8A\J	.	.	.	.	.	.	.
!	!	!	!	!	!	!	!	!	!	!LO:LB:g=original	!	!	!	!
=103	=103	=103	=103	=103	=103	=103	=103	=103	=103	=103	=103	=103	=103	=103
4D\	.	.	4dd\	.	4dd\	.	4D\	-men	-men	8dd\	-men	-men	4F#/	4d\
.	.	.	.	.	.	.	.	.	.	8r	.	.	.	.
4r	.	.	8r	.	8r	.	8r	.	.	8r	.	.	4r	4r
!	!	!	!	!LO:MO:null:mod=p	!	!	!	!	!	!	!	!	!	!
.	.	.	8a/	.	8a/	p	8G\	in	In	8a\	in	In	.	.
=104	=104	=104	=104	=104	=104	=104	=104	=104	=104	=104	=104	=104	=104	=104
!	!	!LO:MO:null:mod=!LO&colon;DY&colon;ed=brack	!	!	!	!	!	!	!	!	!	!	!	!
!	!	!null	!	!LO:DY:rj	!	!	!	!	!	!	!	!	!	!
!	!	!LO:MO:null:mod=p	!	!LO:MO:mod=.	!	!	!	!	!	!	!	!	!	!
8AA/L	7	.	16ee\LL	p	16gg\LL	.	4G\	glo-	glo-	4ee\	glo-	glo-	4e\	4g\
.	.	.	16ee\	.	16gg\	.	.	.	.	.	.	.	.	.
8AA/	.	.	16ee\	.	16ee\	.	.	.	.	.	.	.	.	.
.	.	.	16ee\JJ	.	16ee\JJ	.	.	.	.	.	.	.	.	.
*	*	*	*tremolo	*	*	*	*	*	*	*	*	*	*	*
8AA/	.	.	16ee\LL	.	16cc#\LL	.	8G\	-ri-	-ri-	8ee\	-ri-	-ri-	4A/	4e\
.	.	.	16ee\	.	16cc#\	.	.	.	.	.	.	.	.	.
8AA/J	.	.	16ee\	.	16a\	.	8G\	-a	-a	8ee\	-a	-a	.	.
.	.	.	16ee\JJ	.	16a\JJ	.	.	.	.	.	.	.	.	.
!	!	!	!	!	!LO:LB:g=original	!	!	!	!	!	!	!	!	!
=105	=105	=105	=105	=105	=105	=105	=105	=105	=105	=105	=105	=105	=105	=105
!	!	!	!	!	!	!	!	!	!	!	!	!LO:MO:null:mod=*null	!	!
*tremolo	*	*	*	*	*	*	*	*	*	*	*ij	*ij	*	*
8AA/L	.	.	16ff#\LL	.	16aa\LL	.	4A\	glo-	glo-	4ff#\	glo-	glo-	4f#\	4a\
.	.	.	16ff#\	.	16aa\	.	.	.	.	.	.	.	.	.
8AA/	.	.	16ff#\	.	16ff#\	.	.	.	.	.	.	.	.	.
.	.	.	16ff#\	.	16ff#\JJ	.	.	.	.	.	.	.	.	.
8AA/	.	.	16ff#\	.	16dd\LL	.	8A\	-ri-	-ri-	8ff#\	-ri-	-ri-	4d\	4f#\
.	.	.	16ff#\	.	16dd\	.	.	.	.	.	.	.	.	.
8AA/J	.	.	16ff#\	.	16a\	.	8A\	-a	-a	8ff#\	-a	-a	.	.
*	*	*	*	*	*	*	*	*	*	*	*Xij	*Xij	*	*
.	.	.	16ff#\JJ	.	16a\JJ	.	.	.	.	.	.	.	.	.
*	*	*	*Xtremolo	*	*	*	*	*	*	*	*	*	*	*
!	!	!	!	!	!	!	!	!	!	!	!	!	!LO:LB:g=original	!LO:LB:g=original
=106	=106	=106	=106	=106	=106	=106	=106	=106	=106	=106	=106	=106	=106	=106
8AA/L	.	.	16ee\LL	.	16gg\LL	.	4A\	De-	De-	4gg\	De-	De-	4e\	4g\
.	.	.	16ee\	.	16gg\	.	.	.	.	.	.	.	.	.
8AA/	.	.	16ee\	.	16ee\	.	.	.	.	.	.	.	.	.
.	.	.	16ee\JJ	.	16ee\JJ	.	.	.	.	.	.	.	.	.
*	*	*	*tremolo	*	*	*	*	*	*	*	*	*	*	*
8AA/	.	.	16ee\LL	.	16cc#\LL	.	4A\	-i	-i	4gg\	-i	-i	4G/	4e\
.	.	.	16ee\	.	16cc#\	.	.	.	.	.	.	.	.	.
8AA/J	.	.	16ee\	.	16a\	.	.	.	.	.	.	.	.	.
.	.	.	16ee\JJ	.	16a\JJ	.	.	.	.	.	.	.	.	.
*Xtremolo	*	*	*Xtremolo	*	*	*	*	*	*	*	*	*	*	*
=107	=107	=107	=107	=107	=107	=107	=107	=107	=107	=107	=107	=107	=107	=107
!	!	!LO:MO:null:mod=!LO&colon;DY&colon;ed=brack	!	!LO:MO:null:mod=!LO&colon;DY&colon;ed=brack	!	!	!	!	!	!	!	!	!	!
!	!	!null	!	!null	!	!	!	!	!	!	!	!	!	!
!	!	!LO:MO:null:mod=f	!	!LO:MO:null:mod=f	!	!	!	!	!	!	!	!	!	!
8D\L	.	.	4dd\	.	8ff#\L	f	8d\	Pa-	Pa-	8ff#\	Pa-	Pa-	4d\	4f#\
8F#\	.	.	.	.	8dd\	.	8F#\	-tris	-tris.	8dd\	-tri	-tris.	.	.
8G\	.	.	4cc#\	.	8ee\	.	8G\L	a-	A-	4ee\	a-	A-	4G/	4e\
8A\J	.	.	.	.	8cc#\J	.	8A\J	.	.	.	.	.	.	.
=108	=108	=108	=108	=108	=108	=108	=108	=108	=108	=108	=108	=108	=108	=108
4d\	.	.	4dd\	.	4dd\	.	4d\	-men	-men	4dd\	-men	-men	4F#/	4d\
4A\	.	.	4ee\	.	4ee\	.	4A\	a-	a-	4ee\	a-	a-	4A/	4e\
=109	=109	=109	=109	=109	=109	=109	=109	=109	=109	=109	=109	=109	=109	=109
4D\	.	.	4ff# 4a 4d/	.	4ff# 4a 4d/	.	4D/	-men	-men.	4ff#\	-men	-men.	4d\	4f#\
4r	.	.	4r	.	4r	.	4r	.	.	4r	.	.	4r	4r
==	==	==	==	==	==	==	==	==	==	==	==	==	==	==
*-	*-	*-	*-	*-	*-	*-	*-	*-	*-	*-	*-	*-	*-	*-
!!!system-decoration: [(g1)][(g2)][(g3)]s7
!!!RDF**dynam: p = "pia"
!!!RDF**dynam: f = "for"
!!!RDF**kern: | = vertical stroke
!!!ENC: Andrzej Gręziak
!!!END: 2020-05-12
!!!ENC: Zofia Niedbalska
!!!END: 2020-12-04
!!!ENC-modern: Marta Lawrence
!!!END-modern: 2023-09-06
!!!filter-modern: sic -sq | autostem -r | tie -s | shed -k -e "s/([^a-gA-Gn#X-])[<>]/$1/g" | shed -e "s/yy//" | shed -e "s/LO:DY:(a|b|rj)/LO:dy:$1/L" | shed -e "s/TX(.*):t=P:/tx$1:t=P:/LG" | shed -e "s/LO:N:/LO:n:$1/L" | shed -e "s/^(\d+[\/\\]right)/$1yy/I; s/^(\d+[\/\\]left)/$1yy/I" | shed -k -e "s/([#-])[X]/$1/g; s/[n]/$1/g;" | shed -k -e "s/r[a-gA-G]+/r/D" | modori -m
